!!!!SEGMENT: pl-cz--iii-114--007_dankowski-adalbert--vesperae-d-nisi-dominus.krn
!!!cenid: 18xx:812
!!!COM: Dankowski, Adalbert
!!!COM-rismid: pe30000793
!!!CDT: ~1760-~1836
!!!CNT: Polish
!!!OPR: Vesperae D
!!!OTL: Nisi Dominus
!!!OMV: 007
!!!PDT:
!!!AGN: Sacred; Vespers
!!!SMS-siglum: PL-CZ
!!!SMS-shelfmark: III-114
!!!SMS-shelfwork: 001-007 M
!!!SMS-variant:
!!!SMS-altvar:
!!!NIFC-rismid: 300000113
!!!URL-scan: http://repozytorium.nifc.pl/skany/pl-cz-nut--iii-114
!!!ONB-nifc: UWAGA: części Vesperae: Dixit Dominus, Juravit Dominus, Judicabit, Gloria, Laudate pueri, Laetatus sum, Nisi Dominus, Lauda Jerusalem, Magnificat, Et misericordia, Gloria. Uwaga: brak partii vl 1, fl 1 i 2
!!!key: A
**kern	**fba	**dynam	**kern	**dynam	**kern	**text	**text	**kern	**text	**text	**kern	**text	**text	**kern	**text	**text	**kern	**kern
*part8	*part8	*part8	*part7	*part7	*part6	*part6	*part6	*part5	*part5	*part5	*part4	*part4	*part4	*part3	*part3	*part3	*part2	*part1
*staff8	*	*	*staff7	*	*staff6	*staff6	*staff6	*staff5	*staff5	*staff5	*staff4	*staff4	*staff4	*staff3	*staff3	*staff3	*staff2	*staff1
*I"Organo	*	*	*I"Violino Secondo	*	*I"Basso	*	*	*I"Tenore	*	*	*I"Alto	*	*	*I"Canto	*	*	*I"Cornu Secondo Ex D:	*I"Cornu Primo Ex D:
*I'Org	*	*	*I'Vn II	*	*I'B	*	*	*I'T	*	*	*I'A	*	*	*I'S	*	*	*I'Cor II in D	*I'Cor I in D
*ICklav	*	*	*ICstr	*	*ICvox	*	*	*ICvox	*	*	*ICvox	*	*	*ICvox	*	*	*	*
*Iorgan 	*	*	*Ivioln 	*	*Ibass 	*	*	*Itenor 	*	*	*Ialto 	*	*	*Isoprn	*	*	*	*
*clefF4	*	*	*clefG2	*	*clefF4	*	*	*clefC4	*	*	*clefC3	*	*	*clefC1	*	*	*clefG2	*clefG2
*	*	*	*	*	*	*	*	*	*	*	*	*	*	*	*	*	*ITrd2c3	*ITrd2c3
*k[f#c#g#]	*	*	*k[f#c#g#]	*	*k[f#c#g#]	*	*	*k[f#c#g#]	*	*	*k[f#c#g#]	*	*	*k[f#c#g#]	*	*	*k[f#c#g#]	*k[f#c#g#]
*A:	*	*	*A:	*	*A:	*	*	*A:	*	*	*A:	*	*	*A:	*	*	*A:	*A:
*M2/4	*	*	*M2/4	*	*M2/4	*	*	*M2/4	*	*	*M2/4	*	*	*M2/4	*	*	*M2/4	*M2/4
*	*	*	*	*	*	*	*	*	*	*	*	*	*	*	*	*	*	*
!	!	!	!LO:TX:t=P:problem: klamra łukowa	!	!	!	!	!	!	!	!	!	!	!	!	!	!	!
*2\right	*	*	*	*	*	*	*	*	*	*	*2\right	*	*	*	*	*	*	*
!LO:TX:a:B:t=allegretto	!	!	!LO:TX:a:B:t=allegretto	!LO:DY:a	!LO:TX:a:B:t=allegrett	!	!	!LO:TX:a:B:t=allegretto	!	!	!LO:TX:a:B:t=alegretto	!	!	!LO:TX:a:B:t=alegretto	!	!	!LO:TX:a:B:t=Niſi Dominus Tacet	!LO:TX:a:B:t=Niſi Dominus Tacet
!	!	!LO:DY:t=f.	!	!LO:DY:t=f.	!	!	!	!	!	!	!	!	!	!	!	!	!	!
!	!	!LO:DY:a	!	!	!	!	!	!	!	!	!	!	!	!	!	!	!	!
8r	.	f	24ee\LL	f	8r	.	.	8r	.	.	8r	.	.	8r	.	.	8ryy	8ryy
.	.	.	24ff#\	.	.	.	.	.	.	.	.	.	.	.	.	.	.	.
.	.	.	24gg#\JJ	.	.	.	.	.	.	.	.	.	.	.	.	.	.	.
=1	=1	=1	=1	=1	=1	=1	=1	=1	=1	=1	=1	=1	=1	=1	=1	=1	=1	=1
8r	.	.	8e\ 8cc# 8aa	.	8r	.	.	8r	.	.	8r	.	.	8r	.	.	2ryy	2ryy
!LO:TX:t=P:problem: mixed beam	!	!	!	!	!	!	!	!	!	!	!	!	!	!	!	!	!	!
8A\L	.	.	8r	.	8A\	Be-	Ni-	8e\	Be-	Ni-	8cc#\	Be-	Niſ-	8ee\	Be-	Ni-	.	.
8AA\J	.	.	8r	.	8A\	-a-	-ſi	8e\	-a-	-ſi	8a\	-a-	-i	8cc#\	-a-	-ſi	.	.
8r	.	.	(32b\LLL	.	8r	.	.	8r	.	.	8r	.	.	8r	.	.	.	.
.	.	.	32cc#\	.	.	.	.	.	.	.	.	.	.	.	.	.	.	.
.	.	.	32dd\	.	.	.	.	.	.	.	.	.	.	.	.	.	.	.
.	.	.	32cc#\JJJ)	.	.	.	.	.	.	.	.	.	.	.	.	.	.	.
=2	=2	=2	=2	=2	=2	=2	=2	=2	=2	=2	=2	=2	=2	=2	=2	=2	=2	=2
8r	.	.	8b\	.	8r	.	.	8r	.	.	8r	.	.	8r	.	.	2ryy	2ryy
!LO:TX:t=P:problem: mixed beam	!	!	!	!	!	!	!	!	!	!	!	!	!	!	!	!	!	!
*	*	*	*	*	*	*	*ij	*	*	*ij	*	*	*ij	*	*	*ij	*	*
8E/L	.	.	8r	.	8E\	-tus	Ni-	8e\	-tus	Ni-	8b\	-tus	Ni-	8dd\	-tus	Ni-	.	.
8EE/J	.	.	8r	.	8E\	vir	-ſi	8e\	vir	-ſi	8g#\	vir	-ſi	8b\	vir	-ſi	.	.
8r	.	.	(32cc#\LLL	.	8r	.	.	8r	.	.	8r	.	.	8r	.	.	.	.
.	.	.	32b\	.	.	.	.	.	.	.	.	.	.	.	.	.	.	.
.	.	.	32a\)	.	.	.	.	.	.	.	.	.	.	.	.	.	.	.
.	.	.	32b\JJJ	.	.	.	.	.	.	.	.	.	.	.	.	.	.	.
=3	=3	=3	=3	=3	=3	=3	=3	=3	=3	=3	=3	=3	=3	=3	=3	=3	=3	=3
8r	.	.	8cc#\	.	8r	.	.	8r	.	.	8r	.	.	8r	.	.	2ryy	2ryy
8A\L	.	.	8r	.	8A\L	qui	Ni-	4e\	qui	Ni-	16a\LL	qui	Ni-	16cc#\LL	qui	Ni-	.	.
.	.	.	.	.	.	.	.	.	.	.	(16cc#\JJ	.	.	[16ee\JJ	.	.	.	.
8G#\	6 5	.	4r	.	8G#\J	.	.	.	.	.	8b\)	ti-	.	16ee\LL]	ti-	.	.	.
.	.	.	.	.	.	.	.	.	.	.	.	.	.	16dd\JJ	.	.	.	.
8A\J	.	.	.	.	8A\	ti-	-ſi	8e\	ti-	-ſi	16b\LL	-met	-ſi	16dd\LL	-met	-ſi	.	.
*	*	*	*	*	*	*	*Xij	*	*	*Xij	*	*	*Xij	*	*	*Xij	*	*
.	.	.	.	.	.	.	.	.	.	.	16a\JJ	.	.	16cc#\JJ	.	.	.	.
!	!	!	!	!	!	!	!	!	!	!	!LO:LB:g=original	!	!	!	!	!	!	!
=4	=4	=4	=4	=4	=4	=4	=4	=4	=4	=4	=4	=4	=4	=4	=4	=4	=4	=4
!LO:TX:t=P:problem: mixed beam	!	!	!	!	!	!	!	!	!	!	!	!	!	!	!	!	!	!
8E/L	.	.	4r	.	8.E\	-met	Do-	8.e\	-met	Do-	8.g#\	Do-	Do-	8.b\	Do-	Do-	2ryy	2ryy
8EE/	.	.	.	.	.	.	.	.	.	.	.	.	.	.	.	.	.	.
.	.	.	.	.	16E\	Do-	-mi-	16e\	Do-	-mi-	32a`\LLL	-mi-	-mi-	32cc#`\LLL	-mi-	-mi-	.	.
.	.	.	.	.	.	.	.	.	.	.	32b`\JJJ	num	.	32dd`\JJJ	-num	.	.	.
8AA/	.	.	8r	.	8A\	-mi-	-nus	8e\	-minummi	-nus	8a\	in	-nus	8cc#\	in	-nus	.	.
8A/J	.	.	8cc#\	.	8A\	-num	ae-	8A\	in	ae-	8e\	man-	ae-	8cc#\	man-	ae-	.	.
!	!	!	!	!	!	!	!	!	!	!	!	!	!	!LO:LB:g=original	!	!	!	!
!	!	!	!LO:LB:g=original	!	!	!	!	!LO:LB:g=original	!	!	!	!	!	!	!	!	!	!
=5	=5	=5	=5	=5	=5	=5	=5	=5	=5	=5	=5	=5	=5	=5	=5	=5	=5	=5
8A\L	6 4	.	8dd\L	.	8A\	in	-di-	8A\	man-	-di-	8f#\	-da-	-di-	8dd\	-da-	-di-	2ryy	2ryy
8A\	.	.	8dd\	.	8A\	man-	-fi-	8A\	-da-	-fi-	8f#\	-tis	-fi-	8dd\	-tis	-fi-	.	.
8A\	7 2	.	8b\	.	8A\	-da-	-ca-	8A\	-tis	-ca-	8g#X\	e-	-ca-	8b\	e-	-ca-	.	.
!	!	!	!	!	!LO:LB:g=original	!	!	!	!	!	!	!	!	!	!	!	!	!
8A\J	.	.	8b\J	.	16A\	-tis	-ve-	16A\	eius	-ve-	16g#\	-jus	-ve-	16b\	-ius	-ve-	.	.
.	.	.	.	.	16A\	eius	-rit	16A\	vo-	-rit	16g#\	vo-	-rit	16b\	vo-	-rit	.	.
=6	=6	=6	=6	=6	=6	=6	=6	=6	=6	=6	=6	=6	=6	=6	=6	=6	=6	=6
8A\L	8 3	.	8cc#\L	.	4A\	vo-	Do-	4A\	-let	Do-	4a\	-let	Do-	4cc#\	-let	Do-	2ryy	2ryy
8A\	.	.	8cc#\	.	.	.	.	.	.	.	.	.	.	.	.	.	.	.
8A\	n7r 5	.	8cc#\	.	8A\	-let	-mum	8A\	ni-	-mum	8e\	ni-	-mum	8cc#\	ni-	-mum	.	.
8A\J	.	.	8ee\J	.	8A\	ni-	in	8A\	-mis	in	8e\	-mis	in	8cc#\	-mis	in	.	.
=7	=7	=7	=7	=7	=7	=7	=7	=7	=7	=7	=7	=7	=7	=7	=7	=7	=7	=7
8A\L	6 4	.	8dd\L	.	8A\	-mis	va-	8A\	po	va-	8f#\	Po-	va-	[8dd\	Po-	Va-	2ryy	2ryy
8A\	.	.	8dd\	.	8A\	po-	-num	8A\	Po-	-num	8f#\	.	-num	8dd\]	.	-num	.	.
8A\	#7r_ 2_	.	8b\	.	8A\	-tens	la-	8A\	-tens	la-	8g#X\	-tens	la-	8b\	-tens	La-	.	.
8A\J	.	.	8b\J	.	8A\	in	-bo-	8A\	in	-bo-	8g#\	in	-bo-	8b\	in	-bo-	.	.
!LO:LB:g=original	!	!	!	!	!	!	!	!	!	!	!LO:LB:g=original	!	!	!	!	!	!	!
=8	=8	=8	=8	=8	=8	=8	=8	=8	=8	=8	=8	=8	=8	=8	=8	=8	=8	=8
!LO:TX:t=P:problem: mixed beam	!	!	!	!	!	!	!	!	!	!	!	!	!	!	!	!	!	!
8A\L	3_	.	8cc#\L	.	8.A\	ter-	-ra-	8.A\	ter-	-ra-	8.a\	ter-	-ra-	8.cc#\	ter-	-ra-	2ryy	2ryy
8A\	.	.	8cc#\	.	.	.	.	.	.	.	.	.	.	.	.	.	.	.
.	.	.	.	.	16A\	-ra	-ve-	16e\	-ra	-ve-	16a\	-ra	-ve-	16cc#\	-ra	-ve-	.	.
8AA\	.	.	8cc#\	.	8A\	e-	-runt	8e\	e-	-runt	8a\	e-	-runt	8cc#\	e-	-runt	.	.
8C#\J	.	.	8ee\J	.	8c#\	-rit	qui	8e\	-rit	qui	8a\	-rit	qui	8ee\	-rit	qui	.	.
!	!	!	!	!	!	!	!	!	!	!	!	!	!	!LO:LB:g=original	!	!	!	!
!	!	!	!	!	!	!	!	!LO:LB:g=original	!	!	!	!	!	!	!	!	!	!
=9	=9	=9	=9	=9	=9	=9	=9	=9	=9	=9	=9	=9	=9	=9	=9	=9	=9	=9
*tremolo	*	*	*	*	*	*	*	*	*	*	*	*	*	*	*	*	*	*
*	*	*	*tremolo	*	*	*	*	*	*	*	*	*	*	*	*	*	*	*
8D/L	.	.	8a/L	.	4d\	se-	ae-	4d\	Se-	ae-	4a\	Se-	ae-	4ff#\	Se-	ae-	2ryy	2ryy
8D/	.	.	8a/	.	.	.	.	.	.	.	.	.	.	.	.	.	.	.
8D/	.	.	8a/	.	4d\	-men	-di-	4d\	-men	-di-	4a\	-men	-di-	4ff#\	-men	-di-	.	.
8D/J	.	.	8a/J	.	.	.	.	.	.	.	.	.	.	.	.	.	.	.
=10	=10	=10	=10	=10	=10	=10	=10	=10	=10	=10	=10	=10	=10	=10	=10	=10	=10	=10
8C#/L	6	.	8a/L	.	4c#\	e-	-fi-	4e\	e-	-fi-	4a\	e-	-fi-	4ee\	e-	-fi-	2ryy	2ryy
8C#/	.	.	8a/	.	.	.	.	.	.	.	.	.	.	.	.	.	.	.
8C#/	.	.	8a/	.	4c#\	-ius	-cant	4e\	-ius	-cant	4a\	-jus	-cant	4ee\	-ius	-cant	.	.
8C#/J	.	.	8a/J	.	.	.	.	.	.	.	.	.	.	.	.	.	.	.
!	!	!	!	!	!LO:LB:g=original	!	!	!	!	!	!	!	!	!	!	!	!	!
=11	=11	=11	=11	=11	=11	=11	=11	=11	=11	=11	=11	=11	=11	=11	=11	=11	=11	=11
!LO:TX:t=P:problem: mixed beam	!	!	!	!	!	!	!	!	!	!	!	!	!	!	!	!	!	!
8D/L	6	.	8b\L	.	4d\	e-	e-	4f#\	e-	e-	4b\	e-	e-	4dd\	e-	e-	2ryy	2ryy
!	!	!	!LO:TX:t=P:problem: klamra łukowa	!	!	!	!	!	!	!	!	!	!	!	!	!	!	!
8D/	.	.	24dd\L	.	.	.	.	.	.	.	.	.	.	.	.	.	.	.
.	.	.	24cc#\	.	.	.	.	.	.	.	.	.	.	.	.	.	.	.
.	.	.	24b\JJ	.	.	.	.	.	.	.	.	.	.	.	.	.	.	.
8E/	4	.	8a/L	.	8e\L	.	.	4e\	.	.	8a\L	.	.	8cc#\L	.	.	.	.
8EE/J	3	.	8g#/J	.	8E\J	.	.	.	.	.	8g#\J	.	.	8b\J	.	.	.	.
=12	=12	=12	=12	=12	=12	=12	=12	=12	=12	=12	=12	=12	=12	=12	=12	=12	=12	=12
4AA/	.	.	16e/LL	.	4A\	-ius	-ius	4e\	-ius	-am	4a\	-ius	-am	4cc#\	-ius	-am	2ryy	2ryy
.	.	.	16c#/	.	.	.	.	.	.	.	.	.	.	.	.	.	.	.
.	.	.	16d/	.	.	.	.	.	.	.	.	.	.	.	.	.	.	.
.	.	.	16e/JJ	.	.	.	.	.	.	.	.	.	.	.	.	.	.	.
!LO:TX:b:t=Verte Cito	!	!	!	!	!	!	!	!	!	!	!	!	!	!	!	!	!	!
4r	.	.	16f#/LL	.	4r	.	.	4r	.	.	4r	.	.	4r	.	.	.	.
.	.	.	16g#/	.	.	.	.	.	.	.	.	.	.	.	.	.	.	.
.	.	.	16a/	.	.	.	.	.	.	.	.	.	.	.	.	.	.	.
.	.	.	16b/JJ	.	.	.	.	.	.	.	.	.	.	.	.	.	.	.
!LO:LB:g=original	!	!	!LO:LB:g=original	!	!	!	!	!	!	!	!	!	!	!	!	!	!	!
=13	=13	=13	=13	=13	=13	=13	=13	=13	=13	=13	=13	=13	=13	=13	=13	=13	=13	=13
8r	.	.	8cc#\	.	8r	.	.	8r	.	.	8r	.	.	8r	.	.	2ryy	2ryy
!LO:TX:t=P:problem: mixed beam	!	!	!	!	!	!	!	!	!	!	!	!	!	!	!	!	!	!
8A\L	.	.	8r	.	8A\	ge-	Ni-	8e\	ge-	Niſ-	8cc#\	ge-	Ni-	8ee\	ge-	Ni-	.	.
8AA\J	.	.	8r	.	8A\	-ne-	-ſi	8e\	-ne-	-i	8a\	-ne-	-ſi	8cc#\	-ne-	-ſi	.	.
8r	.	.	(32b\LLL	.	8r	.	.	8r	.	.	8r	.	.	8r	.	.	.	.
.	.	.	32cc#\	.	.	.	.	.	.	.	.	.	.	.	.	.	.	.
.	.	.	32dd\	.	.	.	.	.	.	.	.	.	.	.	.	.	.	.
.	.	.	32cc#\JJJ)	.	.	.	.	.	.	.	.	.	.	.	.	.	.	.
!	!	!	!	!	!	!	!	!	!	!	!LO:LB:g=original	!	!	!	!	!	!	!
=14	=14	=14	=14	=14	=14	=14	=14	=14	=14	=14	=14	=14	=14	=14	=14	=14	=14	=14
8r	.	.	8b\	.	8r	.	.	8r	.	.	8r	.	.	8r	.	.	2ryy	2ryy
!LO:TX:t=P:problem: mixed beam	!	!	!	!	!	!	!	!	!	!	!	!	!	!	!	!	!	!
*	*	*	*	*	*	*	*ij	*	*	*ij	*	*	*	*	*	*ij	*	*
8E/L	.	.	8r	.	8E\	-ra-	Ni-	8e\	-ra-	Ni-	8b\	-ra-	Ni-	8dd\	-ra-	Ni-	.	.
8EE/J	.	.	8r	.	8E\	-ti-	-ſi	8e\	-ti-	-ſi	8g#\	-ti-	-ſi	8b\	-ti-	-ſi	.	.
8r	.	.	(32cc#\LLL	.	8r	.	.	8r	.	.	8r	.	.	8r	.	.	.	.
.	.	.	32b\	.	.	.	.	.	.	.	.	.	.	.	.	.	.	.
.	.	.	32a\	.	.	.	.	.	.	.	.	.	.	.	.	.	.	.
.	.	.	32b\JJJ)	.	.	.	.	.	.	.	.	.	.	.	.	.	.	.
=15	=15	=15	=15	=15	=15	=15	=15	=15	=15	=15	=15	=15	=15	=15	=15	=15	=15	=15
8r	.	.	8cc#\	.	8r	.	.	8r	.	.	8r	.	.	8r	.	.	2ryy	2ryy
*	*	*	*	*	*	*	*	*	*	*	*	*	*ij	*	*	*	*	*
8A\L	6 5	.	8r	.	8A\L	-o	Ni-	4e\	-o	Ni-	16a\LL	-o	Ni-	16cc#\LL	-o	Ni-	.	.
.	.	.	.	.	.	.	.	.	.	.	(16cc#\JJ	.	.	16ee\JJ	.	.	.	.
8G#\	.	.	4r	.	8G#\J	.	.	.	.	.	8b\)	rec-	.	16ee\LL	rec-	.	.	.
.	.	.	.	.	.	.	.	.	.	.	.	.	.	16dd\JJ	.	.	.	.
!	!	!	!	!	!	!	!	!	!	!	!	!	!	!LO:LB:g=original	!	!	!	!
8A\J	.	.	.	.	8A\	rec-	-ſi	8e\	rec-	-ſi	16b`\LL	-to-	-ſi	16dd`\LL	-to-	-ſi	.	.
*	*	*	*	*	*	*	*Xij	*	*	*Xij	*	*	*Xij	*	*	*	*	*
.	.	.	.	.	.	.	.	.	.	.	16a`\JJ	-rum	.	16cc#`\JJ	-rum	.	.	.
!	!	!	!	!	!	!	!	!LO:LB:g=original	!	!	!	!	!	!	!	!	!	!
=16	=16	=16	=16	=16	=16	=16	=16	=16	=16	=16	=16	=16	=16	=16	=16	=16	=16	=16
!LO:TX:t=P:problem: mixed beam	!	!	!	!	!	!	!	!	!	!	!	!	!	!	!	!	!	!
8E/L	.	.	4r	.	8.E\	-to-	Do-	8.e\	-to-	Do-	8.g#\	Be-	Do-	8.b\	Be-	Do-	2ryy	2ryy
8EE/	.	.	.	.	.	.	.	.	.	.	.	.	.	.	.	.	.	.
.	.	.	.	.	16E\	-rum	-mi-	16e\	-rum	-mi-	32a`\LLL	-ne-	-mi-	32cc#`\LLL	-ne-	-mi-	.	.
.	.	.	.	.	.	.	.	.	.	.	32b`\JJJ	-di-	.	32dd`\JJJ	-di-	.	.	.
8AA/	.	.	8r	.	8A\	Be-	-nus	8e\	Bene-	-nus	8a\	-ce-	-nus	8cc#\	-ce-	-nus	.	.
8A/J	.	.	8cc#\	.	[8A\	-ne-	Cuſs-	[8A\	-di-	Cu-	(8e\	-tur	Cu-	(8cc#\	-tur	Cuſ-	.	.
=17	=17	=17	=17	=17	=17	=17	=17	=17	=17	=17	=17	=17	=17	=17	=17	=17	=17	=17
8A\L	6 4	.	8dd\L	.	4A\]	-di-	.	4A\]	-ce-	.	4f#\)	glo-	.	4dd\)	glo-	.	2ryy	2ryy
8A\	.	.	8dd\	.	.	.	.	.	.	.	.	.	.	.	.	.	.	.
8A\	7 2	.	8b\	.	4A\	-ce-	-to-	4A\	-tur	-ſto-	4g#\	-ri-	-ſto-	4b\	-ri-	-to-	.	.
8A\J	.	.	8b\J	.	.	.	.	.	.	.	.	.	.	.	.	.	.	.
=18	=18	=18	=18	=18	=18	=18	=18	=18	=18	=18	=18	=18	=18	=18	=18	=18	=18	=18
8A\L	8_ 3_	.	8cc#\L	.	4A\	-tur	-di-	4A\	glo-	-di-	4a\	-a	-di-	4cc#\	-a	-di-	2ryy	2ryy
8A\	.	.	8cc#\	.	.	.	.	.	.	.	.	.	.	.	.	.	.	.
!	!	!	!	!	!LO:LB:g=original	!	!	!	!	!	!	!	!	!	!	!	!	!
8A\	n7r 5	.	8cc#\	.	8A\	glo-	-e-	8A\	-ri-	-e-	8e\	et	-e-	8cc#\	et	-e-	.	.
8A\J	.	.	8ee\J	.	8A\	-ria	-rit	8A\	-a	-rit	8e\	di-	-rit	8cc#\	di-	-rit	.	.
!	!	!	!	!	!	!	!	!	!	!	!LO:LB:g=original	!	!	!	!	!	!	!
=19	=19	=19	=19	=19	=19	=19	=19	=19	=19	=19	=19	=19	=19	=19	=19	=19	=19	=19
8A\L	6 4	.	8dd\L	.	4A\	et	Ci-	4A\	et	Ci-	4f#\	-vi-	Ci-	4dd\	-vi-	Ci-	2ryy	2ryy
8A\	.	.	8dd\	.	.	.	.	.	.	.	.	.	.	.	.	.	.	.
8A\	#7r 2	.	8b\	.	4A\	di-	-vi-	4A\	di-	-vi-	4g#X\	-ti-	-vi-	4b\	-ti-	-vi-	.	.
8A\J	.	.	8b\J	.	.	.	.	.	.	.	.	.	.	.	.	.	.	.
!	!	!	!LO:LB:g=original	!	!	!	!	!	!	!	!	!	!	!	!	!	!	!
=20	=20	=20	=20	=20	=20	=20	=20	=20	=20	=20	=20	=20	=20	=20	=20	=20	=20	=20
8A\L	3	.	8cc#\L	.	4A\	-vi-	-ta-	4A\	-vi-	-ta-	4a\	-ae	-ta-	4cc#\	-ae	-ta-	2ryy	2ryy
8A\	.	.	8cc#\	.	.	.	.	.	.	.	.	.	.	.	.	.	.	.
8A\	.	.	8cc#\	.	4A\	-ti	-tem	4A\	-ti-	-tem	4a\	in	-tem	4ee\	in	-tem	.	.
8c#\J	.	.	8ee\J	.	.	.	.	.	.	.	.	.	.	.	.	.	.	.
=21	=21	=21	=21	=21	=21	=21	=21	=21	=21	=21	=21	=21	=21	=21	=21	=21	=21	=21
8d\L	.	.	8a/L	.	4d\	e	fru-	4d\	-e	fru-	4a\	do-	fru-	4ff#\	Do-	fru-	2ryy	2ryy
8d\	.	.	8a/	.	.	.	.	.	.	.	.	.	.	.	.	.	.	.
8d\	.	.	8a/	.	4d\	in	-ſtra	4d\	in	-ſtra	4a\	-mo	-ſtra	4ff#\	-mo	-ſtra	.	.
8d\J	.	.	8a/J	.	.	.	.	.	.	.	.	.	.	.	.	.	.	.
!	!	!	!	!	!	!	!	!	!	!	!	!	!	!LO:LB:g=original	!	!	!	!
!	!	!	!	!	!	!	!	!LO:LB:g=original	!	!	!	!	!	!	!	!	!	!
=22	=22	=22	=22	=22	=22	=22	=22	=22	=22	=22	=22	=22	=22	=22	=22	=22	=22	=22
!	!	!	!	!	!	!	!	!	!	!	!LO:TX:t=P:problem: tekst skreślony przez kopistę i powyżej zapisany tekst poprawny	!	!	!	!	!	!	!
8c#\L	6	.	8a/L	.	8c#\	Do-	Vi-	8e\	Do-	Vi-	8a\	e-	Vi-	8.ee\	e-	Vi-	2ryy	2ryy
8c#\	.	.	8a/	.	8c#\	-mo	-gi-	8e\	-mo	-gi-	8a\	-ius	-gi-	.	.	.	.	.
.	.	.	.	.	.	.	.	.	.	.	.	.	.	16ee\	-ius	-gi-	.	.
8c#\	.	.	8a/	.	8c#\	ma-	-lat	8e\	ma-	-lat	8a\	et	-lat	8ee\	et	-lat	.	.
8c#\J	.	.	8a/J	.	8c#\	-trem	qui	8e\	-trem	qui	8a\	ius-	qui	8ee\	ius-	qui	.	.
!LO:LB:g=original	!	!	!	!	!	!	!	!	!	!	!	!	!	!	!	!	!	!
=23	=23	=23	=23	=23	=23	=23	=23	=23	=23	=23	=23	=23	=23	=23	=23	=23	=23	=23
!LO:TX:t=P:problem: mixed beam	!	!	!	!	!	!	!	!	!	!	!	!	!	!	!	!	!	!
8B\L	6 3	.	8dd\L	.	8B\L	fi-	Cuſ-	4e\	fi-	Cuſ-	8g#\L	-ti-	Cuſ-	4dd\	-ti-	Cuſ-	2ryy	2ryy
8G#\	.	.	8b\J	.	8G#\J	.	.	.	.	.	8b\J	.	.	.	.	.	.	.
8A\	.	.	16b/LL	.	8A\	-li-	-to-	8e\	-li-	-to-	8a\	-ti-	-sto-	8cc#\	-ti-	-to-	.	.
.	.	.	16a/	.	.	.	.	.	.	.	.	.	.	.	.	.	.	.
8AA\J	.	.	16cc#/	.	8A\	-o-	-dit	8e\	-o-	-dit	8a\	-a	-dit	8cc#\	-a	-dit	.	.
.	.	.	16a/JJ	.	.	.	.	.	.	.	.	.	.	.	.	.	.	.
=24	=24	=24	=24	=24	=24	=24	=24	=24	=24	=24	=24	=24	=24	=24	=24	=24	=24	=24
!LO:TX:t=P:problem: mixed beam	!	!	!	!	!	!	!	!	!	!	!	!	!	!	!	!	!	!
8E/L	4	.	8a/L	.	4E\	-rum	e-	4e\	-rum	e-	4a\	e-	e-	4cc#\	e-	e-	2ryy	2ryy
8E/	.	.	16g#/L	.	.	.	.	.	.	.	.	.	.	.	.	.	.	.
.	.	.	16a/JJ	.	.	.	.	.	.	.	.	.	.	.	.	.	.	.
8EE/	3	.	8g#/L	.	4E\	le-	-am	4e\	le	-am	4g#X\	-ius	-am	4b\	-ius	-am	.	.
8EE/J	.	.	8g#/J	.	.	.	.	.	.	.	.	.	.	.	.	.	.	.
!	!	!	!	!	!LO:LB:g=original	!	!	!	!	!	!	!	!	!	!	!	!	!
=25	=25	=25	=25	=25	=25	=25	=25	=25	=25	=25	=25	=25	=25	=25	=25	=25	=25	=25
8E\L	3	.	8g#/L	.	4E\	-tan-	Va-	4e\	tan-	Va-	4g#\	ma-	Va-	4b\	ma-	Va-	2ryy	2ryy
8E\	.	.	8g#/	.	.	.	.	.	.	.	.	.	.	.	.	.	.	.
8E\	6 4	.	8a/	.	8E\	.	-num	8e\	-tem	-num	8a\	-net	-num	8cc#\	-net	-num	.	.
8E\J	.	.	8a/J	.	8E\	-tem	est	8e\	.	est	8a\	in	est	8cc#\	in	eſt	.	.
=26	=26	=26	=26	=26	=26	=26	=26	=26	=26	=26	=26	=26	=26	=26	=26	=26	=26	=26
8E\L	3	.	16a/LL	.	4E\	et	Vo-	4e\	et	vo-	4g#\	Sae-	Vo-	4b\	Sae-	Vo-	2ryy	2ryy
.	.	.	16g#/	.	.	.	.	.	.	.	.	.	.	.	.	.	.	.
8E\	.	.	16f#/	.	.	.	.	.	.	.	.	.	.	.	.	.	.	.
.	.	.	16g#/JJ	.	.	.	.	.	.	.	.	.	.	.	.	.	.	.
8E\	.	.	8.b/L	.	4E\	ius-	-bis	4B\	ius-	-bis	4g#\	-cu-	-bis	4b\	-cu-	-bis	.	.
8E\J	.	.	.	.	.	.	.	.	.	.	.	.	.	.	.	.	.	.
.	.	.	16g#/Jk	.	.	.	.	.	.	.	.	.	.	.	.	.	.	.
=27	=27	=27	=27	=27	=27	=27	=27	=27	=27	=27	=27	=27	=27	=27	=27	=27	=27	=27
8BB/L	7 #	.	8f#/L	.	8B\	-ti-	an-	8B\	-ti-	an-	8f#\	-lum	an-	8a\	-lum	an-	2ryy	2ryy
8BB/	.	.	8f#/	.	8B\	-ti-	-te	8B\	-ti-	-te	8f#\	Sae-	-te	8a\	Sae-	-te	.	.
!	!	!	!	!	!	!	!	!	!	!	!	!	!	!LO:LB:g=original	!	!	!	!
!	!	!	!	!	!	!	!	!LO:LB:g=original	!	!	!	!	!	!	!	!	!	!
8BB/	.	.	8f#/	.	8B\	-a	lu-	8B\	-a	lu-	8f#\	-cu-	lu-	8g#\	-cu-	lu-	.	.
8BB/J	.	.	8f#/J	.	8B\	e-	-cem	8B\	e-	-cem	8f#\	-li	-cem	8g#\	-li	-cem	.	.
!	!	!	!LO:LB:g=original	!	!	!	!	!	!	!	!	!	!	!	!	!	!	!
=28	=28	=28	=28	=28	=28	=28	=28	=28	=28	=28	=28	=28	=28	=28	=28	=28	=28	=28
!LO:TX:t=P:problem: mixed beam	!	!	!	!	!	!	!	!	!	!	!	!	!	!	!	!	!	!
8E/L	4	.	8.f#/L	.	8.E\	-ius	Sur-	8.B\	-ius	Sur-	8.f#\	Ex-	Sur-	8.a\	Ex-	Sur-	2ryy	2ryy
8E/	.	.	.	.	.	.	.	.	.	.	.	.	.	.	.	.	.	.
.	.	.	32e/LL	.	16E\	ma-	-ge-	16B\	ma-	-ge-	16f#\	-or-	-ge-	16a\	-or-	-ge-	.	.
.	.	.	32f#/JJJ	.	.	.	.	.	.	.	.	.	.	.	.	.	.	.
8EE/J	3	.	16g#/LL	.	8E\	-net	-re	8B\	-net	-re	8e\	-tum	-re	8g#\	-tum	-re	.	.
.	.	.	16a/	.	.	.	.	.	.	.	.	.	.	.	.	.	.	.
8r	.	.	16b/	.	8r	.	.	8r	.	.	8r	.	.	8r	.	.	.	.
.	.	.	16g#/JJ	.	.	.	.	.	.	.	.	.	.	.	.	.	.	.
=29	=29	=29	=29	=29	=29	=29	=29	=29	=29	=29	=29	=29	=29	=29	=29	=29	=29	=29
8r	.	.	8e/L	.	8r	.	.	8r	.	.	8r	.	.	8r	.	.	2ryy	2ryy
16E`\LL	.	.	16e/L	.	(16E\LL	in	Sur-	16E/LL	in	Sur-	16e\LL	est	Sur-	16e/LL	est	Sur-	.	.
16F#`\JJ	.	.	16f#/JJ	.	16F#\JJ	.	.	(16F#/JJ	.	.	16f#\JJ	.	.	16f#/JJ	.	.	.	.
!	!	!	!	!	!	!	!	!	!	!	!LO:LB:g=original	!	!	!	!	!	!	!
16G#`\LL	.	.	16g#/LL	.	16G#\LL)	Sae-	.	16G#/LL)	Sae	.	16g#\LL	in	.	16g#\LL	in	-gi-	.	.
16F#`\	.	.	16f#/	.	16F#\JJ	-cu-	.	16F#/JJ	cu-	.	16f#\JJ	.	.	16f#\JJ	.	.	.	.
16G#`\	.	.	16g#/	.	16G#\LL	-lum	-gi-	16G#/LL	-lum	-gi	16g#\LL	te	-gi-	16g#\LL	te-	-te	.	.
16A#X`\JJ	.	.	16a#X/JJ	.	16A#X\JJ	.	-te	16A#X/JJ	.	te	16a#X\JJ	.	-te	16a#X\JJ	.	.	.	.
=30	=30	=30	=30	=30	=30	=30	=30	=30	=30	=30	=30	=30	=30	=30	=30	=30	=30	=30
8B`\L	.	.	8b\L	.	8B\	Sae-	poſt	8B\	Sae-	poſt	8b\	ne-	poſt	8b\	-ne-	poſt	2ryy	2ryy
!	!	!	!	!	!LO:LB:g=original	!	!	!	!	!	!	!	!	!	!	!	!	!
(16B\L	.	.	16b\L	.	16B\LL	-cu-	quam	16B\LL	-cu-	quam	16b\LL	-bris	quam	16b\LL	-bris	quam	.	.
16c#\JJ)	.	.	16cc#\JJ	.	16c#\JJ	.	.	16c#\JJ	-li	.	16cc#\JJ	.	.	16cc#\JJ	.	.	.	.
16d#X'\LL	.	.	16dd#X\LL	.	16d#X\LL	-li	Se-	16d#X\LL	ex-	.	16dd#X\LL	lu-	.	16dd#X\LL	lu-	.	.	.
16B'\	.	.	16b\	.	16B\JJ	Ex-	.	16B\JJ	.	.	16b\JJ	.	.	16b\JJ	.	.	.	.
16c#'\	.	.	16cc#\	.	16c#\LL	-or-	.	16c#\LL	-or-	Se-	16cc#\LL	-men	Se-	16cc#\LL	-men	Se-	.	.
16d#'\JJ	.	.	16dd#\JJ	.	16d#\JJ	.	.	16d#\JJ	.	.	16dd#\JJ	.	.	16dd#\JJ	.	.	.	.
!	!	!	!	!	!	!	!	!LO:LB:g=original	!	!	!	!	!	!	!	!	!	!
=31	=31	=31	=31	=31	=31	=31	=31	=31	=31	=31	=31	=31	=31	=31	=31	=31	=31	=31
!	!	!	!LO:TX:t=P:problem: mixed beam	!	!	!	!	!	!	!	!	!	!	!	!	!	!	!
8.e'\L	.	.	8.ee/L	.	8.e\	-tum	-de-	8.e\	-tum	-de-	8.ee\	rec-	-de-	8.ee\	re-	-de-	2ryy	2ryy
16E'\K	.	.	16e/K	.	16E\	est	-ri-	16E/	es	-ri-	16e\	.	-ri-	16e/	-ctis	-ri-	.	.
!	!	!	!	!	!	!	!	!	!	!	!	!	!	!LO:LB:g=original	!	!	!	!
8E'\J	.	.	8e/J	.	8E\	in	-tis	8E/	in	-tis	8e\	-tis	-tis	8e/	tis	-tis	.	.
8r	.	.	8r	.	8r	.	.	8r	.	.	8r	.	.	8r	.	.	.	.
!LO:LB:g=original	!	!	!	!	!	!	!	!	!	!	!	!	!	!	!	!	!	!
=32	=32	=32	=32	=32	=32	=32	=32	=32	=32	=32	=32	=32	=32	=32	=32	=32	=32	=32
8r	.	.	16e/LL	.	8r	.	.	8r	.	.	8r	.	.	8r	.	.	2ryy	2ryy
.	.	.	16gn/	.	.	.	.	.	.	.	.	.	.	.	.	.	.	.
8E\L	n_	.	16b/	.	8B\	te-	qui	8B\	te-	qui	8b\	mi-	qui	8b\	mi-	qui	.	.
.	.	.	16g/JJ	.	.	.	.	.	.	.	.	.	.	.	.	.	.	.
8E\	.	.	16b\LL	.	8B\	-ne-	man-	8B\	-ne-	man-	8b\	-se-	man-	8b\	-se-	man-	.	.
.	.	.	16g\	.	.	.	.	.	.	.	.	.	.	.	.	.	.	.
8E\J	.	.	16ee\	.	8B\	-bris	-du-	8B\	-bris	-du-	8b\	-ri-	-du-	8b\	-ri-	-du-	.	.
.	.	.	16b\JJ	.	.	.	.	.	.	.	.	.	.	.	.	.	.	.
!	!	!	!LO:LB:g=original	!	!	!	!	!	!	!	!	!	!	!	!	!	!	!
=33	=33	=33	=33	=33	=33	=33	=33	=33	=33	=33	=33	=33	=33	=33	=33	=33	=33	=33
4D#X\	n7r 5	.	16b/LL	.	4cn\	lu-	-ca-	4cn\	lu-	-ca-	4ccn\	-cors	-ca-	4ccn\	-cors	-ca-	2ryy	2ryy
.	.	.	16a/	.	.	.	.	.	.	.	.	.	.	.	.	.	.	.
.	.	.	16gn/	.	.	.	.	.	.	.	.	.	.	.	.	.	.	.
.	.	.	16f#/JJ	.	.	.	.	.	.	.	.	.	.	.	.	.	.	.
4E\	x n3r	.	16g/LL	.	4B\	-men	-tis	4B\	-men	-tis	4b\	et	-tis	4b\	et	-tis	.	.
.	.	.	16a/	.	.	.	.	.	.	.	.	.	.	.	.	.	.	.
.	.	.	16b/	.	.	.	.	.	.	.	.	.	.	.	.	.	.	.
.	.	.	16g/JJ	.	.	.	.	.	.	.	.	.	.	.	.	.	.	.
!	!	!	!	!	!	!	!	!	!	!	!LO:LB:g=original	!	!	!	!	!	!	!
=34	=34	=34	=34	=34	=34	=34	=34	=34	=34	=34	=34	=34	=34	=34	=34	=34	=34	=34
8r	.	.	16e/LL	.	8r	.	.	8r	.	.	8r	.	.	8r	.	.	2ryy	2ryy
.	.	.	16gn/	.	.	.	.	.	.	.	.	.	.	.	.	.	.	.
8E\L	n_	.	16b/	.	8B\	rec-	pa-	8B\	rec-	pa-	8b\	mi-	pa-	8b\	mi-	pa-	.	.
.	.	.	16g/JJ	.	.	.	.	.	.	.	.	.	.	.	.	.	.	.
8E\	.	.	16b\LL	.	8B\	-tis	-nem	8B\	-tis	-nem	8b\	-se-	-nem	8b\	-se-	-nem	.	.
.	.	.	16g\	.	.	.	.	.	.	.	.	.	.	.	.	.	.	.
8E\J	.	.	16ee\	.	8B\	mi-	do-	8B\	mi-	do-	8b\	-ra-	do-	8b\	-re-	do-	.	.
.	.	.	16b\JJ	.	.	.	.	.	.	.	.	.	.	.	.	.	.	.
=35	=35	=35	=35	=35	=35	=35	=35	=35	=35	=35	=35	=35	=35	=35	=35	=35	=35	=35
4D#X\	n7r 5	.	16b/LL	.	4cn\	-se-	-lo-	4cn\	-se-	-lo-	4ccn\	-tor	-lo-	4ccn\	-a-	-lo-	2ryy	2ryy
.	.	.	16a/	.	.	.	.	.	.	.	.	.	.	.	.	.	.	.
.	.	.	16gn/	.	.	.	.	.	.	.	.	.	.	.	.	.	.	.
.	.	.	16f#/JJ	.	.	.	.	.	.	.	.	.	.	.	.	.	.	.
4E\	x n	.	16g/LL	.	4B\	-ra-	-ris	4B\	-ra-	-ris	4b\	et	-ris	4b\	-tur	-ris	.	.
.	.	.	16a/	.	.	.	.	.	.	.	.	.	.	.	.	.	.	.
.	.	.	16b/	.	.	.	.	.	.	.	.	.	.	.	.	.	.	.
.	.	.	16g/JJ	.	.	.	.	.	.	.	.	.	.	.	.	.	.	.
!	!	!	!	!	!LO:LB:g=original	!	!	!LO:LB:g=original	!	!	!	!	!	!	!	!	!	!
=36	=36	=36	=36	=36	=36	=36	=36	=36	=36	=36	=36	=36	=36	=36	=36	=36	=36	=36
8r	.	.	16e/LL	.	8r	.	.	8r	.	.	8r	.	.	8r	.	.	2ryy	2ryy
.	.	.	16gn/	.	.	.	.	.	.	.	.	.	.	.	.	.	.	.
8E\L	n_	.	16b/	.	8B\	-tor	qui	8B\	-tor	qui	8b\	ius-	qui	8b\	et	qui	.	.
.	.	.	16g/JJ	.	.	.	.	.	.	.	.	.	.	.	.	.	.	.
8E\	.	.	16b/LL	.	8B\	et	man-	8B\	et	man-	8b\	-tus	man-	8b\	ius-	man-	.	.
.	.	.	16g/	.	.	.	.	.	.	.	.	.	.	.	.	.	.	.
8E\J	.	.	16e/	.	8B\	ius-	-du-	8B\	ius-	-du-	8b\	.	-du-	8b\	-tus	-du-	.	.
.	.	.	16g/JJ	.	.	.	.	.	.	.	.	.	.	.	.	.	.	.
!	!	!	!	!	!	!	!	!	!	!	!	!	!	!LO:LB:g=original	!	!	!	!
=37	=37	=37	=37	=37	=37	=37	=37	=37	=37	=37	=37	=37	=37	=37	=37	=37	=37	=37
4BB/	#	.	16gn/LL	.	4A\	-tum	-ca-	4A\	-tum	-ca-	4a\	Ju-	-ca-	4a\	Ju-	-ca	2ryy	2ryy
.	.	.	16f#/	.	.	.	.	.	.	.	.	.	.	.	.	.	.	.
.	.	.	16e/	.	.	.	.	.	.	.	.	.	.	.	.	.	.	.
.	.	.	16d#X/JJ	.	.	.	.	.	.	.	.	.	.	.	.	.	.	.
!	!	!	!LO:LB:g=original	!	!	!	!	!	!	!	!	!	!	!	!	!	!	!
8E\L	.	.	16e/LL	.	8Gn\	Ju-	-tis	8Gn/	Ju-	-tis	8gn\	-cun-	-tus	8gn\	-cun-	tus	.	.
.	.	.	16g/	.	.	.	.	.	.	.	.	.	.	.	.	.	.	.
8Gn\J	6	.	16b/	.	8B\	-cun-	pa-	8B\	-cun-	pa-	8b\	-dus	pa-	8b\	-dus	pa-	.	.
.	.	.	16ee/JJ	.	.	.	.	.	.	.	.	.	.	.	.	.	.	.
=38	=38	=38	=38	=38	=38	=38	=38	=38	=38	=38	=38	=38	=38	=38	=38	=38	=38	=38
!LO:TX:t=P:problem: mixed beam	!	!	!	!	!	!	!	!	!	!	!	!	!	!	!	!	!	!
8A\L	6_	.	8ccn/L	.	8cn\	-dus	-nem	8cn\	-dus	-nem	8ccn\	ho-	-nem	8ccn\	ho-	-nem	2ryy	2ryy
8A\	.	.	8a/	.	8A\	ho-	do-	8A\	ho-	do-	8a\	-mo	do-	8a\	-mo-	do-	.	.
8B\	4	.	8gn/	.	8Gn\L	.	-lo-	8Gn/L	.	-lo-	8gn\L	qui	-lo-	8gn\L	.	-lo-	.	.
8BB\J	#	.	8f#/J	.	8F#\J	.	.	8F#/J	.	.	8f#\J	.	.	8f#\J	-mo	.	.	.
=39	=39	=39	=39	=39	=39	=39	=39	=39	=39	=39	=39	=39	=39	=39	=39	=39	=39	=39
!	!	!LO:DY:t=p&colon;	!	!	!	!	!	!	!	!	!	!	!	!	!	!	!	!
!	!	!LO:DY:a	!	!	!	!	!	!	!	!	!	!	!	!	!	!	!	!
8E\L	.	p	16e/LL	.	4E\	-mo.	-ris	4E/	-mo:	-ris	4e\	qui	-ris	4e/	qui	-ris	2ryy	2ryy
.	.	.	(16d#X/	.	.	.	.	.	.	.	.	.	.	.	.	.	.	.
8E\	.	.	16c#X/	.	.	.	.	.	.	.	.	.	.	.	.	.	.	.
.	.	.	16B/JJ)	.	.	.	.	.	.	.	.	.	.	.	.	.	.	.
8D#X\	.	.	16B'/LL	.	4r	.	.	4r	.	.	4r	.	.	4r	.	.	.	.
.	.	.	16B'/	.	.	.	.	.	.	.	.	.	.	.	.	.	.	.
8E\J	.	.	16B'/	.	.	.	.	.	.	.	.	.	.	.	.	.	.	.
.	.	.	16B'/JJ	.	.	.	.	.	.	.	.	.	.	.	.	.	.	.
!	!	!	!	!	!	!	!	!	!	!	!LO:LB:g=original	!	!	!	!	!	!	!
=40	=40	=40	=40	=40	=40	=40	=40	=40	=40	=40	=40	=40	=40	=40	=40	=40	=40	=40
!	!	!	!	!	!	!	!	!LO:TX:b:t=47.	!	!	!	!	!	!	!	!	!	!
8r	.	.	(16f#/LL	.	2r	.	.	2r	.	.	2r	.	.	2r	.	.	2ryy	2ryy
.	.	.	16d#X/	.	.	.	.	.	.	.	.	.	.	.	.	.	.	.
8D#X/L	6	.	16c#/)	.	.	.	.	.	.	.	.	.	.	.	.	.	.	.
.	.	.	16B'/JJ	.	.	.	.	.	.	.	.	.	.	.	.	.	.	.
8C#/	6_	.	16A'/LL	.	.	.	.	.	.	.	.	.	.	.	.	.	.	.
.	.	.	16A'/	.	.	.	.	.	.	.	.	.	.	.	.	.	.	.
8D#/J	.	.	16A'/	.	.	.	.	.	.	.	.	.	.	.	.	.	.	.
.	.	.	16A'/JJ	.	.	.	.	.	.	.	.	.	.	.	.	.	.	.
=41	=41	=41	=41	=41	=41	=41	=41	=41	=41	=41	=41	=41	=41	=41	=41	=41	=41	=41
8.E\L	#	.	(8.G#/L	.	2r	.	.	2r	.	.	2r	.	.	2r	.	.	2ryy	2ryy
16F#\K	3	.	16A/Jk)	.	.	.	.	.	.	.	.	.	.	.	.	.	.	.
8G#\	3	.	(16B/LL	.	.	.	.	.	.	.	.	.	.	.	.	.	.	.
.	.	.	16c#/)	.	.	.	.	.	.	.	.	.	.	.	.	.	.	.
8G#\J	6_	.	(16d#X/	.	.	.	.	.	.	.	.	.	.	.	.	.	.	.
.	.	.	16e/JJ)	.	.	.	.	.	.	.	.	.	.	.	.	.	.	.
!LO:LB:g=original	!	!	!	!	!	!	!	!	!	!	!	!	!	!	!	!	!	!
=42	=42	=42	=42	=42	=42	=42	=42	=42	=42	=42	=42	=42	=42	=42	=42	=42	=42	=42
!LO:TX:t=P:problem: mixed beam	!	!	!	!	!	!	!	!	!	!	!	!	!	!	!	!	!	!
8A\L	6	.	8f#/L	.	2r	.	.	2r	.	.	2r	.	.	2r	.	.	2ryy	2ryy
8A\	.	.	8a/	.	.	.	.	.	.	.	.	.	.	.	.	.	.	.
8B\	4	.	8g#/	.	.	.	.	.	.	.	.	.	.	.	.	.	.	.
8BB\J	#	.	8f#/J	.	.	.	.	.	.	.	.	.	.	.	.	.	.	.
!	!	!	!LO:LB:g=original	!	!	!	!	!	!	!	!	!	!	!	!	!	!	!
=43	=43	=43	=43	=43	=43	=43	=43	=43	=43	=43	=43	=43	=43	=43	=43	=43	=43	=43
!	!	!LO:DY:a	!	!LO:DY:a	!	!	!	!	!	!	!LO:TX:a:t=Solo&colon;	!	!	!LO:TX:a:t=Solo	!	!	!	!
!	!	!LO:DY:t=p&colon;	!	!LO:DY:t=p&colon;	!	!	!	!	!	!	!	!	!	!	!	!	!	!
8E\L	.	p	8g#/L	p	2r	.	.	2r	.	.	4.g#\	Mi-	Cum	4.b\	Mi-	Cum	2ryy	2ryy
8E\	.	.	8e/	.	.	.	.	.	.	.	.	.	.	.	.	.	.	.
8E\	.	.	8e/	.	.	.	.	.	.	.	.	.	.	.	.	.	.	.
8E\J	.	.	8e/J	.	.	.	.	.	.	.	16f#\LL	-se-	de-	16a\LL	-se-	de-	.	.
.	.	.	.	.	.	.	.	.	.	.	16e\JJ	.	.	16g#\JJ	.	.	.	.
=44	=44	=44	=44	=44	=44	=44	=44	=44	=44	=44	=44	=44	=44	=44	=44	=44	=44	=44
*	*	*	*Xtremolo	*	*	*	*	*	*	*	*	*	*	*	*	*	*	*
8r	.	.	8r	.	2r	.	.	2r	.	.	4d#X\	-ra-	-de-	4f#/	-ra-	-de-	2ryy	2ryy
8BB/L	#_	.	8d#X/L	.	.	.	.	.	.	.	.	.	.	.	.	.	.	.
8BB/	.	.	8d#/	.	.	.	.	.	.	.	16d#\LL	-tor	.	16f#/LL	-tor	.	.	.
.	.	.	.	.	.	.	.	.	.	.	16c#\	.	.	16e/	.	.	.	.
8BB/J	.	.	8d#/J	.	.	.	.	.	.	.	16d#\	.	.	16f#/	.	.	.	.
.	.	.	.	.	.	.	.	.	.	.	16e\JJ	.	.	16g#/JJ	.	.	.	.
=45	=45	=45	=45	=45	=45	=45	=45	=45	=45	=45	=45	=45	=45	=45	=45	=45	=45	=45
8r	.	.	8r	.	2r	.	.	2r	.	.	4.f#\	et	.	4.a\	e	.	2ryy	2ryy
8BB/L	.	.	8d#X/L	.	.	.	.	.	.	.	.	.	.	.	.	.	.	.
8BB/	.	.	8d#/	.	.	.	.	.	.	.	.	.	.	.	.	.	.	.
8BB/J	.	.	8d#/J	.	.	.	.	.	.	.	16g#\LL	co-	.	16b\LL	co-	.	.	.
.	.	.	.	.	.	.	.	.	.	.	16f#\JJ	.	.	16a\JJ	.	.	.	.
!	!	!	!	!	!	!	!	!	!	!	!	!	!	!LO:LB:g=original	!	!	!	!
=46	=46	=46	=46	=46	=46	=46	=46	=46	=46	=46	=46	=46	=46	=46	=46	=46	=46	=46
8r	.	.	8r	.	2r	.	.	2r	.	.	4e\	-mo-	.	4g#\	-mo-	.	2ryy	2ryy
8E\L	.	.	8e/L	.	.	.	.	.	.	.	.	.	.	.	.	.	.	.
8E\	.	.	8B/	.	.	.	.	.	.	.	16e\LL	-dat	.	16g#\LL	-dat	.	.	.
.	.	.	.	.	.	.	.	.	.	.	16d#X\	.	.	16f#\	.	.	.	.
8E\J	.	.	8B/J	.	.	.	.	.	.	.	16e\	.	.	16g#\	.	.	.	.
.	.	.	.	.	.	.	.	.	.	.	16f#\JJ	.	.	16a\JJ	.	.	.	.
=47	=47	=47	=47	=47	=47	=47	=47	=47	=47	=47	=47	=47	=47	=47	=47	=47	=47	=47
8r	.	.	8r	.	2r	.	.	2r	.	.	4.g#\	dis-	-rit	4.b\	dis-	-rit	2ryy	2ryy
8E\L	.	.	8B/L	.	.	.	.	.	.	.	.	.	.	.	.	.	.	.
8E\	.	.	8B/	.	.	.	.	.	.	.	.	.	.	.	.	.	.	.
8E\J	.	.	8B/J	.	.	.	.	.	.	.	16a\LL	-po-	di-	16cc#\LL	-po-	di-	.	.
.	.	.	.	.	.	.	.	.	.	.	16b\JJ	.	.	16dd#X\JJ	.	.	.	.
!	!	!	!	!	!	!	!	!	!	!	!LO:LB:g=original	!	!	!	!	!	!	!
=48	=48	=48	=48	=48	=48	=48	=48	=48	=48	=48	=48	=48	=48	=48	=48	=48	=48	=48
8r	.	.	8r	.	2r	.	.	2r	.	.	4.cc#\	-net	-le-	4.ee\	-net	-le-	2ryy	2ryy
8E\L	6_ 4_	.	8c#/L	.	.	.	.	.	.	.	.	.	.	.	.	.	.	.
8E\	.	.	8c#/	.	.	.	.	.	.	.	.	.	.	.	.	.	.	.
8E\J	.	.	8c#/J	.	.	.	.	.	.	.	8a\	ser-	-ctis	8cc#\	ser-	-ctis	.	.
=49	=49	=49	=49	=49	=49	=49	=49	=49	=49	=49	=49	=49	=49	=49	=49	=49	=49	=49
8r	.	.	8r	.	2r	.	.	2r	.	.	(4g#\	-mo-	su-	(4b\	-mo-	Su-	2ryy	2ryy
8E\L	5_ 3_	.	8B/L	.	.	.	.	.	.	.	.	.	.	.	.	.	.	.
8E\	.	.	8B/	.	.	.	.	.	.	.	8f#\)	.	.	8a\)	.	.	.	.
8E\J	.	.	8B/J	.	.	.	.	.	.	.	8e\	.	-is	8g#\	.	-is	.	.
=50	=50	=50	=50	=50	=50	=50	=50	=50	=50	=50	=50	=50	=50	=50	=50	=50	=50	=50
8r	.	.	8r	.	2r	.	.	2r	.	.	4e\	.	Som-	4g#\	.	Som-	2ryy	2ryy
!LO:TX:t=P:problem: mixed beam	!	!	!	!	!	!	!	!	!	!	!	!	!	!	!	!	!	!
8B\L	4 #	.	8e/L	.	.	.	.	.	.	.	.	.	.	.	.	.	.	.
8BB\	.	.	8d#X/	.	.	.	.	.	.	.	8d#X\	-nes	-num	8f#/	-nes	-num	.	.
8BB\J	.	.	8d#/J	.	.	.	.	.	.	.	8r	.	.	8r	.	.	.	.
!LO:LB:g=original	!	!	!LO:LB:g=original	!	!	!	!	!	!	!	!	!	!	!	!	!	!	!
=51	=51	=51	=51	=51	=51	=51	=51	=51	=51	=51	=51	=51	=51	=51	=51	=51	=51	=51
8r	.	.	8r	.	2r	.	.	2r	.	.	8.d#X\L	su-	Ec-	8.f#/L	su-	Ec-	2ryy	2ryy
8B\L	#_	.	8d#X/L	.	.	.	.	.	.	.	.	.	.	.	.	.	.	.
.	.	.	.	.	.	.	.	.	.	.	16e\Jk	.	.	16g#/Jk	.	.	.	.
8B\	.	.	8d#/	.	.	.	.	.	.	.	8f#\	-os	-ce	8a\	-os	-ce	.	.
8B\J	.	.	8d#/J	.	.	.	.	.	.	.	8f#\	in	he-	8a\	in	he-	.	.
!	!	!	!	!	!	!	!	!	!	!	!	!	!	!LO:LB:g=original	!	!	!	!
=52	=52	=52	=52	=52	=52	=52	=52	=52	=52	=52	=52	=52	=52	=52	=52	=52	=52	=52
8r	.	.	8r	.	2r	.	.	2r	.	.	4.f#\	ju-	-re-	4.a\	ju-	-re-	2ryy	2ryy
8B\L	.	.	8d/L	.	.	.	.	.	.	.	.	.	.	.	.	.	.	.
8B\	.	.	8d/	.	.	.	.	.	.	.	.	.	.	.	.	.	.	.
8B\J	.	.	8d/J	.	.	.	.	.	.	.	16g#\LL	-di-	-di-	16b\LL	-di-	-di-	.	.
.	.	.	.	.	.	.	.	.	.	.	16f#\JJ	.	.	16a\JJ	.	.	.	.
=53	=53	=53	=53	=53	=53	=53	=53	=53	=53	=53	=53	=53	=53	=53	=53	=53	=53	=53
8r	.	.	8r	.	2r	.	.	2r	.	.	8e\	-ci-	-tas	8g#\	-ci-	-tas	2ryy	2ryy
8E\L	.	.	8e/L	.	.	.	.	.	.	.	16e\LL	-o	ec-	16g#\LL	-o	Ec-	.	.
!	!	!	!	!	!	!	!	!	!	!	!LO:LB:g=original	!	!	!	!	!	!	!
.	.	.	.	.	.	.	.	.	.	.	16f#\JJ	.	.	16a\JJ	.	.	.	.
8E\	.	.	8e/	.	.	.	.	.	.	.	8g#\	qui-	-ce	8b\	qui-	-ce	.	.
8E\J	.	.	8e/J	.	.	.	.	.	.	.	8g#\	-a	he-	8b\	-a	he-	.	.
=54	=54	=54	=54	=54	=54	=54	=54	=54	=54	=54	=54	=54	=54	=54	=54	=54	=54	=54
8r	.	.	8r	.	2r	.	.	2r	.	.	4.g#\	in	-re-	4.b\	in	-re-	2ryy	2ryy
8E\L	.	.	8e/L	.	.	.	.	.	.	.	.	.	.	.	.	.	.	.
8E\	.	.	8e/	.	.	.	.	.	.	.	.	.	.	.	.	.	.	.
8E\J	.	.	8e/J	.	.	.	.	.	.	.	16a\LL	e-	.	16cc#\LL	e-	.	.	.
.	.	.	.	.	.	.	.	.	.	.	16g#\JJ	.	.	16b\JJ	.	.	.	.
=55	=55	=55	=55	=55	=55	=55	=55	=55	=55	=55	=55	=55	=55	=55	=55	=55	=55	=55
8r	.	.	8r	.	2r	.	.	2r	.	.	8.f#\L	-ter-	.	8.a\L	-ter-	.	2ryy	2ryy
8B\L	#	.	8d#X/L	.	.	.	.	.	.	.	.	.	.	.	.	.	.	.
.	.	.	.	.	.	.	.	.	.	.	32e\LL	.	.	32g#\LL	.	.	.	.
.	.	.	.	.	.	.	.	.	.	.	32f#\JJJ	.	.	32a\JJJ	.	.	.	.
8B\	.	.	8d#/	.	.	.	.	.	.	.	8g#\	.	-di-	8b\	-num	-di-	.	.
8B\J	.	.	8d#/J	.	.	.	.	.	.	.	8f#\	-num	-tas	8a\	.	-tas	.	.
=56	=56	=56	=56	=56	=56	=56	=56	=56	=56	=56	=56	=56	=56	=56	=56	=56	=56	=56
8r	.	.	8r	.	2r	.	.	2r	.	.	8.f#\	non	Do-	8.a\	non	Do-	2ryy	2ryy
!LO:TX:t=P:problem: mixed beam	!	!	!	!	!	!	!	!	!	!	!	!	!	!	!	!	!	!
8E/L	4	.	8f#/L	.	.	.	.	.	.	.	.	.	.	.	.	.	.	.
.	.	.	.	.	.	.	.	.	.	.	16f#\	co-	-mi-	16a\	co-	-mi-	.	.
8EE/	3	.	8e/	.	.	.	.	.	.	.	8e\	-mo-	-ni	8g#\	-mo-	-ni	.	.
8EE/J	.	.	8e/J	.	.	.	.	.	.	.	8r	.	.	8r	.	.	.	.
!	!	!	!	!	!	!	!	!	!	!	!	!	!	!LO:LB:g=original	!	!	!	!
=57	=57	=57	=57	=57	=57	=57	=57	=57	=57	=57	=57	=57	=57	=57	=57	=57	=57	=57
8r	.	.	8r	.	2r	.	.	2r	.	.	8.e\	-ve-	fi-	8.g#\	-ve-	fi-	2ryy	2ryy
8E\L	.	.	8B/L	.	.	.	.	.	.	.	.	.	.	.	.	.	.	.
.	.	.	.	.	.	.	.	.	.	.	16f#\	-bi-	-li-	16a\	-bi-	-li-	.	.
8E\	.	.	8B/	.	.	.	.	.	.	.	8g#\	-tur	-is	8b\	-tur	-s	.	.
8E\J	.	.	8B/J	.	.	.	.	.	.	.	8r	.	.	8r	.	.	.	.
!	!	!	!	!	!	!	!	!	!	!	!LO:LB:g=original	!	!	!	!	!	!	!
=58	=58	=58	=58	=58	=58	=58	=58	=58	=58	=58	=58	=58	=58	=58	=58	=58	=58	=58
*	*	*	*	*	*	*	*	*	*	*	*	*	*	*	*	*ij	*	*
8r	.	.	8r	.	2r	.	.	2r	.	.	8.a\	In	fi-	8.cc#\	In	fi-	2ryy	2ryy
8A\L	.	.	8c#/L	.	.	.	.	.	.	.	.	.	.	.	.	.	.	.
.	.	.	.	.	.	.	.	.	.	.	16b\	.	-li-	16dd#X\	.	-li-	.	.
8A\	.	.	8c#/	.	.	.	.	.	.	.	8cc#\	me-	-s	8ee\	me-	-s	.	.
8A\J	.	.	8c#/J	.	.	.	.	.	.	.	8r	.	.	8r	.	.	.	.
!	!	!	!LO:LB:g=original	!	!	!	!	!	!	!	!	!	!	!	!	!	!	!
=59	=59	=59	=59	=59	=59	=59	=59	=59	=59	=59	=59	=59	=59	=59	=59	=59	=59	=59
*	*	*	*	*	*	*	*	*	*	*	*	*	*ij	*	*	*	*	*
8r	.	.	8r	.	2r	.	.	2r	.	.	4cc#\	-mo-	fi-	4ee\	-mo-	fi-	2ryy	2ryy
8A\L	.	.	8c#/L	.	.	.	.	.	.	.	.	.	.	.	.	.	.	.
8A\	.	.	8c#/	.	.	.	.	.	.	.	8b\	-ri-	-li-	8dd#X\	.	-li-	.	.
8A\J	.	.	8c#/J	.	.	.	.	.	.	.	8a\	-a	-s	8cc#\	-ri-	-s	.	.
*	*	*	*	*	*	*	*	*	*	*	*	*	*Xij	*	*	*Xij	*	*
!LO:LB:g=original	!	!	!	!	!	!	!	!	!	!	!	!	!	!	!	!	!	!
=60	=60	=60	=60	=60	=60	=60	=60	=60	=60	=60	=60	=60	=60	=60	=60	=60	=60	=60
8r	.	.	8r	.	2r	.	.	2r	.	.	4.g#\	e-	mer-	4.b\	-ae-	mer-	2ryy	2ryy
8E\L	.	.	8B/L	.	.	.	.	.	.	.	.	.	.	.	.	.	.	.
8E\	.	.	8B/	.	.	.	.	.	.	.	.	.	.	.	.	.	.	.
!	!	!	!	!	!	!	!	!	!	!	!LO:TX:a:t=|	!	!	!	!	!	!	!
8E\J	.	.	8B/J	.	.	.	.	.	.	.	16f#\LL	-ter-	-ces	16a\LL	.	-ces	.	.
!	!	!	!	!	!	!	!	!	!	!	!LO:TX:a:t=|	!	!	!	!	!	!	!
.	.	.	.	.	.	.	.	.	.	.	16g#\JJ	.	.	16b\JJ	.	.	.	.
=61	=61	=61	=61	=61	=61	=61	=61	=61	=61	=61	=61	=61	=61	=61	=61	=61	=61	=61
8r	.	.	8r	.	2r	.	.	2r	.	.	4a\	-na	fru-	4cc#\	-ter-	fru-	2ryy	2ryy
8A\L	.	.	8c#/L	.	.	.	.	.	.	.	.	.	.	.	.	.	.	.
8A\	.	.	8c#/	.	.	.	.	.	.	.	8g#\L	e-	-ctu	8b\L	.	-ctus	.	.
8A\J	6	.	8c#/J	.	.	.	.	.	.	.	8f#\J	.	.	8a\J	-re	.	.	.
!	!	!	!	!	!	!	!	!	!	!	!	!	!	!LO:LB:g=original	!	!	!	!
=62	=62	=62	=62	=62	=62	=62	=62	=62	=62	=62	=62	=62	=62	=62	=62	=62	=62	=62
8r	.	.	8r	.	2r	.	.	2r	.	.	2e\	-rit	Ven-	2g#/	eit	Ven-	2ryy	2ryy
8B\L	4	.	8e/L	.	.	.	.	.	.	.	.	.	.	.	.	.	.	.
8B\	.	.	8e/	.	.	.	.	.	.	.	.	.	.	.	.	.	.	.
8B\J	.	.	8e/J	.	.	.	.	.	.	.	.	.	.	.	.	.	.	.
=63	=63	=63	=63	=63	=63	=63	=63	=63	=63	=63	=63	=63	=63	=63	=63	=63	=63	=63
8r	.	.	8r	.	2r	.	.	2r	.	.	2d#X\	jus-	.	2f#/	jus-	.	2ryy	2ryy
8BB/L	#	.	8d#X/L	.	.	.	.	.	.	.	.	.	.	.	.	.	.	.
8BB/	.	.	8d#/	.	.	.	.	.	.	.	.	.	.	.	.	.	.	.
8BB/J	.	.	8d#/J	.	.	.	.	.	.	.	.	.	.	.	.	.	.	.
=64	=64	=64	=64	=64	=64	=64	=64	=64	=64	=64	=64	=64	=64	=64	=64	=64	=64	=64
!	!	!LO:DY:a	!	!LO:DY:a	!	!	!	!	!	!	!	!	!	!	!	!	!	!
!	!	!LO:DY:t=for&colon;	!	!LO:DY:t=f.	!	!	!	!	!	!	!	!	!	!	!	!	!	!
16E\LL	.	f	16e/LL	f	2r	.	.	2r	.	.	4e\	-tus	-tris	4g#\	-tus	-tris	2ryy	2ryy
(32F#\L	.	.	32f#/L	.	.	.	.	.	.	.	.	.	.	.	.	.	.	.
32G#\	.	.	(32g#/	.	.	.	.	.	.	.	.	.	.	.	.	.	.	.
32A\	.	.	32a/	.	.	.	.	.	.	.	.	.	.	.	.	.	.	.
32B\	.	.	32b/	.	.	.	.	.	.	.	.	.	.	.	.	.	.	.
32c#\)	.	.	32cc#/	.	.	.	.	.	.	.	.	.	.	.	.	.	.	.
32d#X\JJJ	.	.	32dd#X/JJJ)	.	.	.	.	.	.	.	.	.	.	.	.	.	.	.
16e'\LL	.	.	16ee'\LL	.	.	.	.	.	.	.	4r	.	.	4r	.	.	.	.
16d#'\	.	.	16dd#'\	.	.	.	.	.	.	.	.	.	.	.	.	.	.	.
16c#'\	.	.	16cc#'\	.	.	.	.	.	.	.	.	.	.	.	.	.	.	.
16B'\JJ	.	.	16b'\JJ	.	.	.	.	.	.	.	.	.	.	.	.	.	.	.
!	!	!	!	!	!	!	!	!	!	!	!LO:LB:g=original	!	!	!	!	!	!	!
=65	=65	=65	=65	=65	=65	=65	=65	=65	=65	=65	=65	=65	=65	=65	=65	=65	=65	=65
16A'\LL	.	.	16a'/LL	.	2r	.	.	2r	.	.	2r	.	.	2r	.	.	2ryy	2ryy
16G#'\	.	.	16g#'/	.	.	.	.	.	.	.	.	.	.	.	.	.	.	.
16F#'\	.	.	16f#'/	.	.	.	.	.	.	.	.	.	.	.	.	.	.	.
16E'\JJ	.	.	16e'/JJ	.	.	.	.	.	.	.	.	.	.	.	.	.	.	.
!	!	!	!LO:LB:g=original	!	!	!	!	!	!	!	!	!	!	!	!	!	!	!
16D#X'/LL	.	.	16d#X'/LL	.	.	.	.	.	.	.	.	.	.	.	.	.	.	.
16BB'/	.	.	16B'/	.	.	.	.	.	.	.	.	.	.	.	.	.	.	.
16C#'/	.	.	16c#'/	.	.	.	.	.	.	.	.	.	.	.	.	.	.	.
16D#'/JJ	.	.	16d#'/JJ	.	.	.	.	.	.	.	.	.	.	.	.	.	.	.
=66	=66	=66	=66	=66	=66	=66	=66	=66	=66	=66	=66	=66	=66	=66	=66	=66	=66	=66
16E'\LL	.	.	16e'/LL	.	2r	.	.	2r	.	.	2r	.	.	2r	.	.	2ryy	2ryy
16F#'\	.	.	16f#'/	.	.	.	.	.	.	.	.	.	.	.	.	.	.	.
16G#'\	.	.	16g#'/	.	.	.	.	.	.	.	.	.	.	.	.	.	.	.
16A'\JJ	.	.	16a'/JJ	.	.	.	.	.	.	.	.	.	.	.	.	.	.	.
!LO:TX:t=P:problem: mixed beam	!	!	!	!	!	!	!	!	!	!	!	!	!	!	!	!	!	!
8B'\L	.	.	8b/L	.	.	.	.	.	.	.	.	.	.	.	.	.	.	.
8BB'\J	.	.	8B/J	.	.	.	.	.	.	.	.	.	.	.	.	.	.	.
!LO:LB:g=original	!	!	!	!	!	!	!	!	!	!	!	!	!	!	!	!	!	!
=67	=67	=67	=67	=67	=67	=67	=67	=67	=67	=67	=67	=67	=67	=67	=67	=67	=67	=67
!	!	!LO:DY:a	!	!	!LO:TX:a:t=Solo&colon;	!	!	!	!	!	!	!	!	!	!	!	!	!
!	!	!LO:DY:t=p&colon;	!	!	!	!	!	!	!	!	!	!	!	!	!	!	!	!
4E'\	.	p	4e/	.	8r	.	.	2r	.	.	2r	.	.	2r	.	.	2ryy	2ryy
.	.	.	.	.	8E\L	Ab	Si-	.	.	.	.	.	.	.	.	.	.	.
8r	.	.	8r	.	8G#\J	.	.	.	.	.	.	.	.	.	.	.	.	.
!	!	!	!LO:TX:b:t=Verte	!LO:DY:a	!	!	!	!	!	!	!	!	!	!	!	!	!	!
!	!	!	!	!LO:DY:t=p&colon;	!	!	!	!	!	!	!	!	!	!	!	!	!	!
8G#'\	.	.	8g#/	p	8E\	au-	-cut	.	.	.	.	.	.	.	.	.	.	.
!	!	!	!LO:LB:g=original	!	!LO:LB:g=original	!	!	!	!	!	!	!	!	!	!	!	!	!
=68	=68	=68	=68	=68	=68	=68	=68	=68	=68	=68	=68	=68	=68	=68	=68	=68	=68	=68
8.B'\L	.	.	8.b\L	.	8.B\	-di-	Sa-	2r	.	.	2r	.	.	2r	.	.	2ryy	2ryy
(32c#\LL	.	.	32cc#\LL	.	32c#\LLL	-ti-	-git-	.	.	.	.	.	.	.	.	.	.	.
32d#X\JJJ)	.	.	32dd#X\JJJ	.	32d#X\JJJ	.	.	.	.	.	.	.	.	.	.	.	.	.
16e'\LL	.	.	16ee\LL	.	16e\LL	-o-	-tae	.	.	.	.	.	.	.	.	.	.	.
16d#'\	.	.	16dd#\	.	16d#\JJ	.	.	.	.	.	.	.	.	.	.	.	.	.
16c#'\	.	.	16cc#\	.	16c#\LL	-ne	in	.	.	.	.	.	.	.	.	.	.	.
16B'\JJ	.	.	16b\JJ	.	16B\JJ	.	.	.	.	.	.	.	.	.	.	.	.	.
=69	=69	=69	=69	=69	=69	=69	=69	=69	=69	=69	=69	=69	=69	=69	=69	=69	=69	=69
16c#'\LL	.	.	16cc#'/LL	.	16c#\LL	ma-	ma-	2r	.	.	2r	.	.	2r	.	.	2ryy	2ryy
16B'\	.	.	16b'/	.	16B\	.	.	.	.	.	.	.	.	.	.	.	.	.
16A'\	.	.	16a'/	.	16A\	-la	.	.	.	.	.	.	.	.	.	.	.	.
16G#'\JJ	.	.	16g#'/JJ	.	16G#\JJ	.	.	.	.	.	.	.	.	.	.	.	.	.
16F#'\LL	.	.	16f#'/LL	.	16F#\LL	no-	-nu	.	.	.	.	.	.	.	.	.	.	.
16G#'\	.	.	16g#'/	.	16G#\JJ	.	.	.	.	.	.	.	.	.	.	.	.	.
16A'\	.	.	16a'/	.	16A\LL	-ti-	po-	.	.	.	.	.	.	.	.	.	.	.
16B'\JJ	.	.	16b'/JJ	.	16B\JJ	.	.	.	.	.	.	.	.	.	.	.	.	.
=70	=70	=70	=70	=70	=70	=70	=70	=70	=70	=70	=70	=70	=70	=70	=70	=70	=70	=70
16G#'\LL	.	.	16g#'/LL	.	16G#\LL	-me-	-ten-	2r	.	.	2r	.	.	2r	.	.	2ryy	2ryy
16F#'\	.	.	16f#'/JJ	.	16F#\JJ	.	.	.	.	.	.	.	.	.	.	.	.	.
(32E\L	.	.	(32e/LLL	.	8E\	-bit	-tis	.	.	.	.	.	.	.	.	.	.	.
32D#X\	.	.	32d#X/	.	.	.	.	.	.	.	.	.	.	.	.	.	.	.
32E\	.	.	32e/)	.	.	.	.	.	.	.	.	.	.	.	.	.	.	.
32F#\JJJ)	.	.	32f#/JJJ	.	.	.	.	.	.	.	.	.	.	.	.	.	.	.
16G#\LL	.	.	16g#'/LL	.	4r	.	.	.	.	.	.	.	.	.	.	.	.	.
16B'\	.	.	16b'/	.	.	.	.	.	.	.	.	.	.	.	.	.	.	.
16G#'\	.	.	16g#'/	.	.	.	.	.	.	.	.	.	.	.	.	.	.	.
16E'\JJ	.	.	16e'/JJ	.	.	.	.	.	.	.	.	.	.	.	.	.	.	.
=71	=71	=71	=71	=71	=71	=71	=71	=71	=71	=71	=71	=71	=71	=71	=71	=71	=71	=71
4BB/	.	.	4B/	.	8r	.	.	2r	.	.	2r	.	.	2r	.	.	2ryy	2ryy
.	.	.	.	.	16B\LL	Pa-	i-	.	.	.	.	.	.	.	.	.	.	.
.	.	.	.	.	16c#\JJ	.	.	.	.	.	.	.	.	.	.	.	.	.
!	!	!	!	!LO:DY:a	!	!	!	!	!	!	!	!	!	!	!	!	!	!
!	!	!	!	!LO:DY:t=p&colon;	!	!	!	!	!	!	!	!	!	!	!	!	!	!
8r	.	.	8r	p	8B\	-ra-	.	.	.	.	.	.	.	.	.	.	.	.
8D#X\	6 5	.	8B/	.	8A\	-tum	-ta	.	.	.	.	.	.	.	.	.	.	.
=72	=72	=72	=72	=72	=72	=72	=72	=72	=72	=72	=72	=72	=72	=72	=72	=72	=72	=72
8E\L	.	.	8B/L	.	16G#\LL	est	fi-	2r	.	.	2r	.	.	2r	.	.	2ryy	2ryy
.	.	.	.	.	16F#\	.	.	.	.	.	.	.	.	.	.	.	.	.
8E\	.	.	8g#/	.	16G#\	.	.	.	.	.	.	.	.	.	.	.	.	.
.	.	.	.	.	16A\JJ	.	.	.	.	.	.	.	.	.	.	.	.	.
8E\	.	.	8g#/	.	16B\LL	cor	-lis	.	.	.	.	.	.	.	.	.	.	.
.	.	.	.	.	16G#\JJ	.	.	.	.	.	.	.	.	.	.	.	.	.
8G#\J	6	.	8g#/J	.	16F#\LL	e-	.	.	.	.	.	.	.	.	.	.	.	.
.	.	.	.	.	16E\JJ	.	.	.	.	.	.	.	.	.	.	.	.	.
!	!	!	!	!	!LO:LB:g=original	!	!	!	!	!	!	!	!	!	!	!	!	!
=73	=73	=73	=73	=73	=73	=73	=73	=73	=73	=73	=73	=73	=73	=73	=73	=73	=73	=73
!LO:TX:t=P:problem: mixed beam	!	!	!	!	!	!	!	!	!	!	!	!	!	!	!	!	!	!
8A\L	6	.	8a/L	.	16F#\LL	-jus	ex-	2r	.	.	2r	.	.	2r	.	.	2ryy	2ryy
.	.	.	.	.	16G#\JJ	spe-	.	.	.	.	.	.	.	.	.	.	.	.
8A\	.	.	8a/	.	16A\LL	-ra-	-cus-	.	.	.	.	.	.	.	.	.	.	.
.	.	.	.	.	16F#\JJ	.	.	.	.	.	.	.	.	.	.	.	.	.
!	!	!	!	!	!LO:TX:t=P:problem: mixed beam	!	!	!	!	!	!	!	!	!	!	!	!	!
8B\	3	.	8g#/	.	8B\L	-re	-so-	.	.	.	.	.	.	.	.	.	.	.
8BB\J	#	.	8f#/J	.	8BB\J	in	.	.	.	.	.	.	.	.	.	.	.	.
!LO:LB:g=original	!	!	!	!	!	!	!	!	!	!	!	!	!	!	!	!	!	!
=74	=74	=74	=74	=74	=74	=74	=74	=74	=74	=74	=74	=74	=74	=74	=74	=74	=74	=74
!	!	!	!	!	!	!	!	!	!	!	!LO:TX:a:t=Solo&colon;	!	!	!	!	!	!	!
4E\	.	.	4g#/	.	4E\	D(omi)no	-rum	2r	.	.	8r	.	.	2r	.	.	2ryy	2ryy
.	.	.	.	.	.	.	.	.	.	.	8b\	In	Be-	.	.	.	.	.
8r	.	.	8r	.	4r	.	.	.	.	.	16cc#\LL	me-	-a-	.	.	.	.	.
.	.	.	.	.	.	.	.	.	.	.	16b\JJ	.	.	.	.	.	.	.
8E\	.	.	8g#/	.	.	.	.	.	.	.	16a`\LL	-mo-	-tus	.	.	.	.	.
.	.	.	.	.	.	.	.	.	.	.	16g#`\JJ	-ri-	.	.	.	.	.	.
!	!	!	!LO:LB:g=original	!	!	!	!	!	!	!	!	!	!	!	!	!	!	!
=75	=75	=75	=75	=75	=75	=75	=75	=75	=75	=75	=75	=75	=75	=75	=75	=75	=75	=75
!	!	!	!	!	!LO:TX:a:t=12.	!	!	!	!	!	!	!	!	!	!	!	!	!
4BB/	#_	.	8f#/L	.	2r	.	.	2r	.	.	4f#\	-a	Vir	2r	.	.	2ryy	2ryy
.	.	.	32f#/LL	.	.	.	.	.	.	.	.	.	.	.	.	.	.	.
.	.	.	(32e/	.	.	.	.	.	.	.	.	.	.	.	.	.	.	.
.	.	.	32f#/	.	.	.	.	.	.	.	.	.	.	.	.	.	.	.
.	.	.	32g#/JJJ)	.	.	.	.	.	.	.	.	.	.	.	.	.	.	.
8r	.	.	8a/L	.	.	.	.	.	.	.	8r	.	.	.	.	.	.	.
8BB/	.	.	8a/J	.	.	.	.	.	.	.	8f#\	ae-	qui	.	.	.	.	.
=76	=76	=76	=76	=76	=76	=76	=76	=76	=76	=76	=76	=76	=76	=76	=76	=76	=76	=76
4E\	.	.	4g#/	.	2r	.	.	2r	.	.	16g#\LL	-ter-	im-	2r	.	.	2ryy	2ryy
.	.	.	.	.	.	.	.	.	.	.	16f#\	.	.	.	.	.	.	.
.	.	.	.	.	.	.	.	.	.	.	16g#\	-na	.	.	.	.	.	.
.	.	.	.	.	.	.	.	.	.	.	16a\JJ	.	.	.	.	.	.	.
8r	.	.	8r	.	.	.	.	.	.	.	8b\	e-	-ple-	.	.	.	.	.
8E\	.	.	8b\	.	.	.	.	.	.	.	8b\	-rit	-vit	.	.	.	.	.
=77	=77	=77	=77	=77	=77	=77	=77	=77	=77	=77	=77	=77	=77	=77	=77	=77	=77	=77
8D#X/L	6 5	.	4b\	.	2r	.	.	2r	.	.	4a\	ius-	de-	2r	.	.	2ryy	2ryy
8BB/J	.	.	.	.	.	.	.	.	.	.	.	.	.	.	.	.	.	.
8E\L	.	.	4b\	.	.	.	.	.	.	.	4g#\	-tus	-ſi-	.	.	.	.	.
8E\J	.	.	.	.	.	.	.	.	.	.	.	.	.	.	.	.	.	.
=78	=78	=78	=78	=78	=78	=78	=78	=78	=78	=78	=78	=78	=78	=78	=78	=78	=78	=78
!LO:TX:t=P:problem: mixed beam	!	!	!	!	!	!	!	!	!	!	!	!	!	!	!	!	!	!
8A\L	6	.	4cc#\	.	2r	.	.	2r	.	.	16a\LL	ab	-de-	2r	.	.	2ryy	2ryy
.	.	.	.	.	.	.	.	.	.	.	16b\JJ	.	.	.	.	.	.	.
8A\	.	.	.	.	.	.	.	.	.	.	16cc#\	au-	-ri-	.	.	.	.	.
.	.	.	.	.	.	.	.	.	.	.	16a\	-di-	-um	.	.	.	.	.
!	!	!	!	!	!	!	!	!	!	!	!LO:LB:g=original	!	!	!	!	!	!	!
8B\	4	.	8b\L	.	.	.	.	.	.	.	8g#\L	-ci-	Su-	.	.	.	.	.
8BB\J	#	.	8a\J	.	.	.	.	.	.	.	8f#\J	-o-	.	.	.	.	.	.
=79	=79	=79	=79	=79	=79	=79	=79	=79	=79	=79	=79	=79	=79	=79	=79	=79	=79	=79
8E\L	.	.	8g#/L	.	2r	.	.	2r	.	.	4g#\	-ne	-um	2r	.	.	2ryy	2ryy
8E\	.	.	32g#/LL	.	.	.	.	.	.	.	.	.	.	.	.	.	.	.
.	.	.	(32a/	.	.	.	.	.	.	.	.	.	.	.	.	.	.	.
.	.	.	32b/	.	.	.	.	.	.	.	.	.	.	.	.	.	.	.
.	.	.	32a/JJJ	.	.	.	.	.	.	.	.	.	.	.	.	.	.	.
8E\J	.	.	8g#/)	.	.	.	.	.	.	.	8r	.	.	.	.	.	.	.
8r	.	.	8r	.	.	.	.	.	.	.	8b\	ma-	de-	.	.	.	.	.
=80	=80	=80	=80	=80	=80	=80	=80	=80	=80	=80	=80	=80	=80	=80	=80	=80	=80	=80
8r	.	.	8r	.	2r	.	.	2r	.	.	4.a#X\	-la	.	2r	.	.	2ryy	2ryy
8E\L	#4r_ 2_	.	8f#/L	.	.	.	.	.	.	.	.	.	.	.	.	.	.	.
8E\	.	.	8f#/	.	.	.	.	.	.	.	.	.	.	.	.	.	.	.
8E\J	.	.	8f#/J	.	.	.	.	.	.	.	16g#\LL	non	-ſi-	.	.	.	.	.
.	.	.	.	.	.	.	.	.	.	.	16a#\JJ	.	.	.	.	.	.	.
=81	=81	=81	=81	=81	=81	=81	=81	=81	=81	=81	=81	=81	=81	=81	=81	=81	=81	=81
4Dn\	6	.	4f#/	.	2r	.	.	2r	.	.	16b\LL	ti-	-de-	2r	.	.	2ryy	2ryy
.	.	.	.	.	.	.	.	.	.	.	16f#\	.	.	.	.	.	.	.
.	.	.	.	.	.	.	.	.	.	.	16g#\	.	.	.	.	.	.	.
.	.	.	.	.	.	.	.	.	.	.	16a\JJ	.	.	.	.	.	.	.
4r	.	.	4r	.	.	.	.	.	.	.	16b\LL	-me-	.	.	.	.	.	.
.	.	.	.	.	.	.	.	.	.	.	16cc#\	.	.	.	.	.	.	.
.	.	.	.	.	.	.	.	.	.	.	16ddn\	-bit	.	.	.	.	.	.
.	.	.	.	.	.	.	.	.	.	.	16b\JJ	.	.	.	.	.	.	.
=82	=82	=82	=82	=82	=82	=82	=82	=82	=82	=82	=82	=82	=82	=82	=82	=82	=82	=82
8r	.	.	8r	.	2r	.	.	2r	.	.	4.g#\	Pa-	.	2r	.	.	2ryy	2ryy
8D\L	4_ 2_	.	8e/L	.	.	.	.	.	.	.	.	.	.	.	.	.	.	.
8D\	.	.	8e/	.	.	.	.	.	.	.	.	.	.	.	.	.	.	.
8D\J	.	.	8e/J	.	.	.	.	.	.	.	16f#\LL	-ra-	.	.	.	.	.	.
.	.	.	.	.	.	.	.	.	.	.	16g#\JJ	.	.	.	.	.	.	.
=83	=83	=83	=83	=83	=83	=83	=83	=83	=83	=83	=83	=83	=83	=83	=83	=83	=83	=83
4C#/	6	.	4e/	.	2r	.	.	2r	.	.	(16an\LL	-tum	.	2r	.	.	2ryy	2ryy
.	.	.	.	.	.	.	.	.	.	.	16e\)	.	.	.	.	.	.	.
.	.	.	.	.	.	.	.	.	.	.	(16f#\	cor	.	.	.	.	.	.
.	.	.	.	.	.	.	.	.	.	.	16g#\JJ)	.	.	.	.	.	.	.
4r	.	.	4r	.	.	.	.	.	.	.	(16a\LL	e-	.	.	.	.	.	.
.	.	.	.	.	.	.	.	.	.	.	16b\)	.	.	.	.	.	.	.
.	.	.	.	.	.	.	.	.	.	.	(16cc#\	-ius	.	.	.	.	.	.
.	.	.	.	.	.	.	.	.	.	.	16a\JJ)	.	.	.	.	.	.	.
!LO:LB:g=original	!	!	!LO:LB:g=original	!	!	!	!	!	!	!	!LO:LB:g=original	!	!	!	!	!	!	!
=84	=84	=84	=84	=84	=84	=84	=84	=84	=84	=84	=84	=84	=84	=84	=84	=84	=84	=84
8G#\L	6 5	.	16e/LL	.	2r	.	.	2r	.	.	8.b\L	spe-	.	2r	.	.	2ryy	2ryy
.	.	.	16e/	.	.	.	.	.	.	.	.	.	.	.	.	.	.	.
8G#\	.	.	16e/	.	.	.	.	.	.	.	.	.	.	.	.	.	.	.
.	.	.	16e/JJ	.	.	.	.	.	.	.	16ee\Jk	.	.	.	.	.	.	.
8A\	.	.	16e/LL	.	.	.	.	.	.	.	16dd\LL	-ra-	-ri-	.	.	.	.	.
.	.	.	16e/	.	.	.	.	.	.	.	16cc#\	.	.	.	.	.	.	.
8c#\J	6	.	16e/	.	.	.	.	.	.	.	16b\	-re	-um	.	.	.	.	.
.	.	.	16e/JJ	.	.	.	.	.	.	.	16a\JJ	.	.	.	.	.	.	.
=85	=85	=85	=85	=85	=85	=85	=85	=85	=85	=85	=85	=85	=85	=85	=85	=85	=85	=85
8e\L	3_	.	16e/LL	.	2r	.	.	2r	.	.	8.g#\L	in	ſu-	2r	.	.	2ryy	2ryy
.	.	.	16e/	.	.	.	.	.	.	.	.	.	.	.	.	.	.	.
8d\	.	.	16e/	.	.	.	.	.	.	.	.	.	.	.	.	.	.	.
.	.	.	16e/JJ	.	.	.	.	.	.	.	32f#\LL	in	.	.	.	.	.	.
.	.	.	.	.	.	.	.	.	.	.	32g#\JJJ	.	.	.	.	.	.	.
8c#\	6	.	16e/LL	.	.	.	.	.	.	.	8a\	Do-	-um	.	.	.	.	.
.	.	.	16e/	.	.	.	.	.	.	.	.	.	.	.	.	.	.	.
8A\J	.	.	16e/	.	.	.	.	.	.	.	8cc#\	-mi-	ex	.	.	.	.	.
.	.	.	16e/JJ	.	.	.	.	.	.	.	.	.	.	.	.	.	.	.
=86	=86	=86	=86	=86	=86	=86	=86	=86	=86	=86	=86	=86	=86	=86	=86	=86	=86	=86
!	!	!	!	!	!	!	!	!LO:TX:b:t=Verte	!	!	!	!	!	!	!	!	!	!
8d\L	6	.	8f#/L	.	2r	.	.	2r	.	.	16b\LL	-no	ip-	2r	.	.	2ryy	2ryy
.	.	.	.	.	.	.	.	.	.	.	16cc#\	Co-	.	.	.	.	.	.
8d\	.	.	8f#/	.	.	.	.	.	.	.	16dd\	-fir-	.	.	.	.	.	.
.	.	.	.	.	.	.	.	.	.	.	16b\JJ	.	.	.	.	.	.	.
8e\	4	.	8e/	.	.	.	.	.	.	.	8a\L	-ma-	.	.	.	.	.	.
8E\J	3	.	8e/J	.	.	.	.	.	.	.	8g#\J	.	.	.	.	.	.	.
!	!	!	!	!	!	!	!	!LO:LB:g=original	!	!	!	!	!	!	!	!	!	!
=87	=87	=87	=87	=87	=87	=87	=87	=87	=87	=87	=87	=87	=87	=87	=87	=87	=87	=87
!	!	!	!	!LO:DY:a	!	!	!	!	!	!	!	!	!	!	!	!	!	!
!	!	!	!	!LO:DY:t=f&colon;	!	!	!	!	!	!	!	!	!	!	!	!	!	!
4A\	.	.	16e/LL	f	4r	.	.	4r	.	.	4a\	-tum	-ſis	4r	.	.	2ryy	2ryy
.	.	.	16a/	.	.	.	.	.	.	.	.	.	.	.	.	.	.	.
.	.	.	16cc#/	.	.	.	.	.	.	.	.	.	.	.	.	.	.	.
.	.	.	16ee/JJ	.	.	.	.	.	.	.	.	.	.	.	.	.	.	.
!	!	!LO:DY:a	!	!	!	!	!	!	!	!	!	!	!	!	!	!	!	!
!	!	!LO:DY:t=f&colon;	!	!	!	!	!	!	!	!	!	!	!	!	!	!	!	!
8r	.	f	[<4aa\	.	8r	.	.	8r	.	.	8r	.	.	8r	.	.	.	.
8C#/	6	.	.	.	8c#\	est	non	8e\	est	non	8a\	est	non	8ee\	est	non	.	.
=88	=88	=88	=88	=88	=88	=88	=88	=88	=88	=88	=88	=88	=88	=88	=88	=88	=88	=88
4r	.	.	16aa\LL]	.	4r	.	.	4r	.	.	4r	.	.	4r	.	.	2ryy	2ryy
.	.	.	16a\	.	.	.	.	.	.	.	.	.	.	.	.	.	.	.
.	.	.	16dd\	.	.	.	.	.	.	.	.	.	.	.	.	.	.	.
.	.	.	16ff#\JJ	.	.	.	.	.	.	.	.	.	.	.	.	.	.	.
8r	.	.	[<4aa\	.	8r	.	.	8r	.	.	8r	.	.	8r	.	.	.	.
*	*	*	*	*	*	*	*ij	*	*	*ij	*	*	*	*	*	*ij	*	*
8D\	.	.	.	.	8d\	cor	non	8d\	cor	non	8a\	cor	non	8ff#\	cor	non	.	.
!	!	!	!	!	!	!	!	!	!	!	!LO:LB:g=original	!	!	!	!	!	!	!
=89	=89	=89	=89	=89	=89	=89	=89	=89	=89	=89	=89	=89	=89	=89	=89	=89	=89	=89
4r	.	.	16aa\LL]	.	4r	.	.	4r	.	.	4r	.	.	4r	.	.	2ryy	2ryy
.	.	.	16a\	.	.	.	.	.	.	.	.	.	.	.	.	.	.	.
.	.	.	16cc#\	.	.	.	.	.	.	.	.	.	.	.	.	.	.	.
.	.	.	16ee\JJ	.	.	.	.	.	.	.	.	.	.	.	.	.	.	.
8r	.	.	4aa\	.	8r	.	.	8r	.	.	8r	.	.	8r	.	.	.	.
8C#/	6	.	.	.	8c#\	e-	non	8e\	e-	non	8a\	e-	non	8ee\	e-	non	.	.
=90	=90	=90	=90	=90	=90	=90	=90	=90	=90	=90	=90	=90	=90	=90	=90	=90	=90	=90
8G#\L	6_ 5_	.	16gg#\LL	.	4G#\	-ius	non	4e\	-ius	non	4b\	-ius	non	4dd\	-ius	non	2ryy	2ryy
*	*	*	*	*	*	*	*Xij	*	*	*Xij	*	*	*	*	*	*Xij	*	*
.	.	.	16ee\	.	.	.	.	.	.	.	.	.	.	.	.	.	.	.
8G#\	.	.	16b\	.	.	.	.	.	.	.	.	.	.	.	.	.	.	.
.	.	.	16ee\JJ	.	.	.	.	.	.	.	.	.	.	.	.	.	.	.
8G#\	.	.	16bb\LL	.	8G#\	non	Con-	8e\	non	Con-	8b\	non	Con-	8dd\	non	Con-	.	.
.	.	.	16gg#\	.	.	.	.	.	.	.	.	.	.	.	.	.	.	.
8G#\J	.	.	16ee\	.	8G#\	co-	-fun-	8e\	com-	-fun-	8b\	com-	-fun-	8dd\	com-	-fun-	.	.
.	.	.	16dd\JJ	.	.	.	.	.	.	.	.	.	.	.	.	.	.	.
!	!	!	!	!	!	!	!	!	!	!	!	!	!	!LO:LB:g=original	!	!	!	!
=91	=91	=91	=91	=91	=91	=91	=91	=91	=91	=91	=91	=91	=91	=91	=91	=91	=91	=91
8A\L	.	.	16dd\LL	.	4A\	-mo-	-de-	4e\	-mo-	-de-	4a\	-mo-	-de-	4cc#\	-mo-	-de-	2ryy	2ryy
.	.	.	16cc#\	.	.	.	.	.	.	.	.	.	.	.	.	.	.	.
8A\	.	.	16aa\	.	.	.	.	.	.	.	.	.	.	.	.	.	.	.
.	.	.	16gg#\JJ	.	.	.	.	.	.	.	.	.	.	.	.	.	.	.
!	!	!	!LO:LB:g=original	!	!	!	!	!	!	!	!	!	!	!	!	!	!	!
8A\	.	.	16ff#\LL	.	4A\	-ve-	-tur	4e\	-ve-	-tur	4a\	-ve-	-tur	4cc#\	-ve-	-tur	.	.
.	.	.	16ee\	.	.	.	.	.	.	.	.	.	.	.	.	.	.	.
8A\J	.	.	16dd\	.	.	.	.	.	.	.	.	.	.	.	.	.	.	.
.	.	.	16cc#\JJ	.	.	.	.	.	.	.	.	.	.	.	.	.	.	.
!	!	!	!	!	!LO:LB:g=original	!	!	!	!	!	!	!	!	!	!	!	!	!
=92	=92	=92	=92	=92	=92	=92	=92	=92	=92	=92	=92	=92	=92	=92	=92	=92	=92	=92
8G#\L	6 5	.	16cc#\LL	.	4G#\	-bi-	Cum	4e\	-bi-	Cum	4b\	-bi-	Cum	4dd\	-bi-	Cum	2ryy	2ryy
.	.	.	16b\	.	.	.	.	.	.	.	.	.	.	.	.	.	.	.
8G#\	.	.	16ee\	.	.	.	.	.	.	.	.	.	.	.	.	.	.	.
.	.	.	16gg#\JJ	.	.	.	.	.	.	.	.	.	.	.	.	.	.	.
8G#\	.	.	16bb\LL	.	4G#\	-tur	lo-	4e\	-tur	lo-	4b\	-tur	lo-	4dd\	-tur	lo-	.	.
.	.	.	16gg#\	.	.	.	.	.	.	.	.	.	.	.	.	.	.	.
8G#\J	.	.	16ee\	.	.	.	.	.	.	.	.	.	.	.	.	.	.	.
.	.	.	16dd\JJ	.	.	.	.	.	.	.	.	.	.	.	.	.	.	.
=93	=93	=93	=93	=93	=93	=93	=93	=93	=93	=93	=93	=93	=93	=93	=93	=93	=93	=93
8A\L	.	.	16dd\LL	.	4A\	do-	-que-	4e\	do-	-que-	4a\	do-	-que-	4cc#\	do-	-que-	2ryy	2ryy
.	.	.	16cc#\	.	.	.	.	.	.	.	.	.	.	.	.	.	.	.
8A\	.	.	16aa\	.	.	.	.	.	.	.	.	.	.	.	.	.	.	.
.	.	.	16gg#\JJ	.	.	.	.	.	.	.	.	.	.	.	.	.	.	.
8A\	.	.	16ff#\LL	.	4A\	-nec	-tur	4e\	-nec	-tur	4a\	-nec	-tur	4cc#\	-nec	-tur	.	.
.	.	.	16ee\	.	.	.	.	.	.	.	.	.	.	.	.	.	.	.
8A\J	.	.	16dd\	.	.	.	.	.	.	.	.	.	.	.	.	.	.	.
.	.	.	16cc#\JJ	.	.	.	.	.	.	.	.	.	.	.	.	.	.	.
=94	=94	=94	=94	=94	=94	=94	=94	=94	=94	=94	=94	=94	=94	=94	=94	=94	=94	=94
8D/L	6	.	16cc#\LL	.	4d\	des-	i-	4d\	des-	i-	4b\	des-	i-	4ff#\	des-	i-	2ryy	2ryy
.	.	.	16b\	.	.	.	.	.	.	.	.	.	.	.	.	.	.	.
8D/	.	.	16b\	.	.	.	.	.	.	.	.	.	.	.	.	.	.	.
.	.	.	16b\JJ	.	.	.	.	.	.	.	.	.	.	.	.	.	.	.
8D/	.	.	16ff#\LL	.	4d\	-pi-	-ni-	4d\	-pi-	-ni-	4b\	-pi-	-ni-	4ff#\	-pi-	-ni-	.	.
.	.	.	16dd\	.	.	.	.	.	.	.	.	.	.	.	.	.	.	.
8D/J	.	.	16cc#\	.	.	.	.	.	.	.	.	.	.	.	.	.	.	.
.	.	.	16b\JJ	.	.	.	.	.	.	.	.	.	.	.	.	.	.	.
=95	=95	=95	=95	=95	=95	=95	=95	=95	=95	=95	=95	=95	=95	=95	=95	=95	=95	=95
8C#/L	6	.	16b\LL	.	8c#\	-ci-	-mi-	8e\	-ci-	-mi-	8a\	-ci-	-mi-	8ee\	-ci-	-mi-	2ryy	2ryy
.	.	.	16a\	.	.	.	.	.	.	.	.	.	.	.	.	.	.	.
8C#/	.	.	16a\	.	8c#\	-at	-cis	8e\	-at	-cis	8a\	-at	-cis	8ee\	-at	-cis	.	.
.	.	.	16a\JJ	.	.	.	.	.	.	.	.	.	.	.	.	.	.	.
8C#/	.	.	16a\LL	.	4c#\	in	su-	4e\	in	Su-	4a\	in-	ſu-	4ee\	in	Su-	.	.
.	.	.	16cc#\	.	.	.	.	.	.	.	.	.	.	.	.	.	.	.
8C#/J	.	.	16ee\	.	.	.	.	.	.	.	.	.	.	.	.	.	.	.
.	.	.	16aa\JJ	.	.	.	.	.	.	.	.	.	.	.	.	.	.	.
!LO:LB:g=original	!	!	!	!	!	!	!	!	!	!	!LO:LB:g=original	!	!	!	!	!	!	!
=96	=96	=96	=96	=96	=96	=96	=96	=96	=96	=96	=96	=96	=96	=96	=96	=96	=96	=96
!LO:TX:t=P:problem: mixed beam	!	!	!	!	!	!	!	!	!	!	!	!	!	!	!	!	!	!
8D/L	6	.	8ff#\L	.	8d\	id	-is	8f#\	id	-is	8b\	-i-	-is	8dd\	ip-	-is	2ryy	2ryy
8D/	.	.	24dd\L	.	8d\	ip-	in	8f#\	ip-	in	8b\	-ni-	in	8dd\	.	in	.	.
.	.	.	24cc#\	.	.	.	.	.	.	.	.	.	.	.	.	.	.	.
.	.	.	24b\JJ	.	.	.	.	.	.	.	.	.	.	.	.	.	.	.
8E/	4	.	8a/L	.	8e\L	.	por-	4e\	.	por-	8a\L	-mi-	por-	8cc#\L	.	por-	.	.
8EE/J	3	.	8g#/J	.	8E\J	.	.	.	.	.	8g#\J	-cos	.	8b\J	.	.	.	.
!	!	!	!LO:LB:g=original	!	!	!	!	!	!	!	!	!	!	!	!	!	!	!
=97	=97	=97	=97	=97	=97	=97	=97	=97	=97	=97	=97	=97	=97	=97	=97	=97	=97	=97
8AA/L	.	.	8a/L	.	4A\	-sum	-ta	4e\	-sum	-ta	4a\	suos	-ta	4cc#\	-sum	-ta	2ryy	2ryy
32AA/LL	.	.	32a/LL	.	.	.	.	.	.	.	.	.	.	.	.	.	.	.
(32GG#/	.	.	32g#/	.	.	.	.	.	.	.	.	.	.	.	.	.	.	.
32AA/	.	.	32a/	.	.	.	.	.	.	.	.	.	.	.	.	.	.	.
32BB/JJJ)	.	.	32b/JJJ	.	.	.	.	.	.	.	.	.	.	.	.	.	.	.
16C#'/LL	.	.	16cc#\LL	.	4r	.	.	4r	.	.	4r	.	.	4r	.	.	.	.
16AA'/	.	.	16a\	.	.	.	.	.	.	.	.	.	.	.	.	.	.	.
16C#'/	.	.	16cc#\	.	.	.	.	.	.	.	.	.	.	.	.	.	.	.
16E'/JJ	.	.	16ee\JJ	.	.	.	.	.	.	.	.	.	.	.	.	.	.	.
!	!	!	!	!	!	!	!	!	!	!	!	!	!	!LO:LB:g=original	!	!	!	!
=98	=98	=98	=98	=98	=98	=98	=98	=98	=98	=98	=98	=98	=98	=98	=98	=98	=98	=98
!LO:TX:t=P:problem: mixed beam	!	!	!	!	!	!	!	!	!	!	!	!	!	!	!	!	!	!
8A'\L	.	.	4aa\	.	2r	.	.	2r	.	.	8r	.	.	8r	.	.	2ryy	2ryy
8AA\J	.	.	.	.	.	.	.	.	.	.	8cc#\	Dis-	Glo-	8ee\	Dis-	glo-	.	.
4r	.	.	4r	.	.	.	.	.	.	.	8b\	-per-	-ri-	8dd\	-per-	-ri-	.	.
.	.	.	.	.	.	.	.	.	.	.	8a\	-sit	-a	8cc#\	-sit	-a	.	.
=99	=99	=99	=99	=99	=99	=99	=99	=99	=99	=99	=99	=99	=99	=99	=99	=99	=99	=99
!	!	!LO:DY:a	!	!	!	!	!	!	!	!	!	!	!	!	!	!	!	!
!	!	!LO:DY:t=p&colon;	!	!	!	!	!	!	!	!	!	!	!	!	!	!	!	!
8r	.	p	2r	.	2r	.	.	2r	.	.	16g#\LL	de-	pa-	16b\LL	de-	pa-	2ryy	2ryy
.	.	.	.	.	.	.	.	.	.	.	16f#\	.	.	16a\	.	.	.	.
8E\L	.	.	.	.	.	.	.	.	.	.	16g#\	.	.	16b\	.	.	.	.
.	.	.	.	.	.	.	.	.	.	.	16a\JJ	.	.	16cc#\JJ	.	.	.	.
8G#\	.	.	.	.	.	.	.	.	.	.	8b\	-dit	-tri	8dd\	-dit	-tri	.	.
8B\J	.	.	.	.	.	.	.	.	.	.	8r	.	.	8r	.	.	.	.
=100	=100	=100	=100	=100	=100	=100	=100	=100	=100	=100	=100	=100	=100	=100	=100	=100	=100	=100
4E\	.	.	2r	.	2r	.	.	2r	.	.	8r	.	.	8r	.	.	2ryy	2ryy
.	.	.	.	.	.	.	.	.	.	.	8b\	pau-	glo-	8dd\	pau-	glo-	.	.
4r	.	.	.	.	.	.	.	.	.	.	8a\	-pe-	-ri-	8cc#\	-pe-	-ri-	.	.
.	.	.	.	.	.	.	.	.	.	.	8g#\	-ri-	-a	8b\	-ri-	-a	.	.
!	!	!	!	!	!	!	!	!	!	!	!LO:LB:g=original	!	!	!	!	!	!	!
=101	=101	=101	=101	=101	=101	=101	=101	=101	=101	=101	=101	=101	=101	=101	=101	=101	=101	=101
8r	.	.	2r	.	2r	.	.	2r	.	.	16a\LL	.	fi-	16cc#\LL	.	fi-	2ryy	2ryy
.	.	.	.	.	.	.	.	.	.	.	16g#\JJ	.	.	16b\JJ	.	.	.	.
8AA/L	.	.	.	.	.	.	.	.	.	.	16a\LL	.	-li-	16cc#\LL	.	-li-	.	.
.	.	.	.	.	.	.	.	.	.	.	16b\JJ	.	.	16dd\JJ	.	.	.	.
8C#/	.	.	.	.	.	.	.	.	.	.	8cc#\	-bus	-o	8ee\	-bus	-o	.	.
8E/J	.	.	.	.	.	.	.	.	.	.	8r	.	.	8r	.	.	.	.
=102	=102	=102	=102	=102	=102	=102	=102	=102	=102	=102	=102	=102	=102	=102	=102	=102	=102	=102
4A\	.	.	2r	.	2r	.	.	2r	.	.	8r	.	.	8r	.	.	2ryy	2ryy
.	.	.	.	.	.	.	.	.	.	.	8cc#`\L	ius-	&	8ee`\L	ius-	&	.	.
8r	.	.	.	.	.	.	.	.	.	.	8b`\J	-ti-	.	8dd`\J	-ti-	Spi-	.	.
8AA/	.	.	.	.	.	.	.	.	.	.	8a\	-ti-	Spi-	8cc#\	-ti-	.	.	.
=103	=103	=103	=103	=103	=103	=103	=103	=103	=103	=103	=103	=103	=103	=103	=103	=103	=103	=103
8E\L	3_	.	2r	.	2r	.	.	2r	.	.	4g#\	-a	-ri-	4b\	-a	-ri-	2ryy	2ryy
8D\J	.	.	.	.	.	.	.	.	.	.	.	.	.	.	.	.	.	.
8C#/L	6	.	.	.	.	.	.	.	.	.	8a\	e-	-tu-	8cc#\	e-	-tu-	.	.
8AA/J	.	.	.	.	.	.	.	.	.	.	8a\	-ius	-i	8cc#\	-ius	-i	.	.
!	!	!	!	!	!	!	!	!	!	!	!	!	!	!LO:LB:g=original	!	!	!	!
=104	=104	=104	=104	=104	=104	=104	=104	=104	=104	=104	=104	=104	=104	=104	=104	=104	=104	=104
!LO:TX:t=P:problem: mixed beam	!	!	!	!	!	!	!	!	!	!	!	!	!	!	!	!	!	!
8D/L	6	.	8r	.	2r	.	.	2r	.	.	4b\	ma-	San-	4dd\	ma-	San-	2ryy	2ryy
8D/	.	.	8b/L	.	.	.	.	.	.	.	.	.	.	.	.	.	.	.
8E/	4	.	8a/	.	.	.	.	.	.	.	8a\L	.	.	8cc#\L	.	.	.	.
8EE/J	3	.	8g#/J	.	.	.	.	.	.	.	8g#\J	.	.	8b\J	.	.	.	.
!LO:LB:g=original	!	!	!	!	!	!	!	!	!	!	!	!	!	!	!	!	!	!
=105	=105	=105	=105	=105	=105	=105	=105	=105	=105	=105	=105	=105	=105	=105	=105	=105	=105	=105
!	!	!	!	!LO:DY:a	!	!	!	!	!	!	!	!	!	!	!	!	!	!
4AA/	.	.	16e/LL	f	2r	.	.	2r	.	.	4a\	-net	-cto	4cc#\	-net	-cto	2ryy	2ryy
.	.	.	16c#/	.	.	.	.	.	.	.	.	.	.	.	.	.	.	.
.	.	.	16d/	.	.	.	.	.	.	.	.	.	.	.	.	.	.	.
.	.	.	16e/JJ	.	.	.	.	.	.	.	.	.	.	.	.	.	.	.
4r	.	.	16f#/LL	.	.	.	.	.	.	.	4r	.	.	4r	.	.	.	.
.	.	.	16g#/	.	.	.	.	.	.	.	.	.	.	.	.	.	.	.
.	.	.	16a/	.	.	.	.	.	.	.	.	.	.	.	.	.	.	.
.	.	.	16b/JJ	.	.	.	.	.	.	.	.	.	.	.	.	.	.	.
!	!	!	!	!	!	!	!	!	!	!	!LO:LB:g=original	!	!	!	!	!	!	!
=106	=106	=106	=106	=106	=106	=106	=106	=106	=106	=106	=106	=106	=106	=106	=106	=106	=106	=106
!	!	!LO:DY:a	!	!	!	!	!	!	!	!	!	!	!	!	!	!	!	!
8r	.	fz	8cc#\	.	8r	.	.	8r	.	.	8r	.	.	8r	.	.	2ryy	2ryy
!LO:TX:t=P:problem:mixed beam	!	!	!	!	!	!	!	!	!	!	!	!	!	!	!	!	!	!
8A\L	.	.	8r	.	8A\	in	Si-	8e\	in	Si-	8cc#\	in	Si-	8ee\	in	Si-	.	.
8AA\J	.	.	8r	.	8A\	Sae-	-cut	8e\	Sae-	-cut	8a\	Sae-	-cut	8cc#\	Sae-	-cut	.	.
8r	.	.	(32b\LLL	.	8r	.	.	8r	.	.	8r	.	.	8r	.	.	.	.
.	.	.	32cc#\	.	.	.	.	.	.	.	.	.	.	.	.	.	.	.
.	.	.	32dd\	.	.	.	.	.	.	.	.	.	.	.	.	.	.	.
.	.	.	32cc#\JJJ)	.	.	.	.	.	.	.	.	.	.	.	.	.	.	.
!	!	!	!	!	!LO:LB:g=original	!	!	!	!	!	!	!	!	!	!	!	!	!
=107	=107	=107	=107	=107	=107	=107	=107	=107	=107	=107	=107	=107	=107	=107	=107	=107	=107	=107
8r	.	.	8b\	.	8r	.	.	8r	.	.	8r	.	.	8r	.	.	2ryy	2ryy
!LO:TX:t=P:problem: mixed beam	!	!	!	!	!	!	!	!	!	!	!	!	!	!	!	!	!	!
8E/L	.	.	8r	.	8E\	-cu-	e-	8e\	-cu-	e-	8b\	-cu-	e-	8dd\	-cu-	e-	.	.
8EE/J	.	.	8r	.	8E\	-lum	-rat	8e\	-lum	-rat	8g#\	-lum	-rat	8b\	-lum	-rat	.	.
8r	.	.	(32cc#\LLL	.	8r	.	.	8r	.	.	8r	.	.	8r	.	.	.	.
.	.	.	32b\	.	.	.	.	.	.	.	.	.	.	.	.	.	.	.
.	.	.	32a\)	.	.	.	.	.	.	.	.	.	.	.	.	.	.	.
.	.	.	32b\JJJ	.	.	.	.	.	.	.	.	.	.	.	.	.	.	.
!	!	!	!LO:LB:g=original	!	!	!	!	!	!	!	!	!	!	!	!	!	!	!
=108	=108	=108	=108	=108	=108	=108	=108	=108	=108	=108	=108	=108	=108	=108	=108	=108	=108	=108
8r	.	.	8cc#\	.	8r	.	.	8r	.	.	8r	.	.	8r	.	.	2ryy	2ryy
8A\L	.	.	8r	.	8A\L	Sae-	in	4e\	Sae-	in	16a\LL	Sae-	in	16cc#\LL	Sae-	in	.	.
.	.	.	.	.	.	.	.	.	.	.	(16cc#\JJ	.	.	[16ee\JJ	.	.	.	.
8G#\	6 5	.	4r	.	8G#\J	.	.	.	.	.	8b\)	.	.	16ee\LL]	.	.	.	.
.	.	.	.	.	.	.	.	.	.	.	.	.	.	16dd\JJ	.	.	.	.
8A\J	.	.	.	.	8A\	-cu-	prin-	8e\	-cu-	prin-	16b\LL	-cu-	prin-	16dd\LL	-cu-	prin-	.	.
.	.	.	.	.	.	.	.	.	.	.	16a\JJ	.	.	16cc#\JJ	.	.	.	.
!	!	!	!	!	!	!	!	!	!	!	!	!	!	!LO:LB:g=original	!	!	!	!
=109	=109	=109	=109	=109	=109	=109	=109	=109	=109	=109	=109	=109	=109	=109	=109	=109	=109	=109
!LO:TX:t=P:problem: mixed beam	!	!	!	!	!	!	!	!	!	!	!	!	!	!	!	!	!	!
8E/L	.	.	4r	.	8.E\	-li	-ci-	8e\	-li	-ci-	8.g#\	-li	-ci-	8.b\	-li	-ci-	2ryy	2ryy
8EE/	.	.	.	.	.	.	.	8e\	cor-	-pi-	.	.	.	.	.	.	.	.
.	.	.	.	.	16E\	cor-	-pi-	.	.	.	32a\LLL	.	-pi-	32cc#\LLL	.	-pi-	.	.
.	.	.	.	.	.	.	.	.	.	.	32b\JJJ	.	.	32dd\JJJ	.	.	.	.
8AA/	.	.	8r	.	8A\	.	-o	8e\	-nu	-o	8a\	-cor-	-o	8cc#\	cor-	-o	.	.
8A/J	.	.	8cc#\	.	8A\	-nu	&	8A\	.	&	8e\	-nu	&	8cc#\	-nu	&	.	.
=110	=110	=110	=110	=110	=110	=110	=110	=110	=110	=110	=110	=110	=110	=110	=110	=110	=110	=110
8A\L	6 4	.	8dd\L	.	4A\	e-	nunc	4A\	e-	nunc	4f#\	e-	nunc	4dd\	e-	nunc	2ryy	2ryy
8A\	.	.	8dd\	.	.	.	.	.	.	.	.	.	.	.	.	.	.	.
8A\	7_ 2_	.	8b\	.	4A\	-ius	&	4A\	-ius	&	4g#\	-ius	&	4b\	-ius	&	.	.
8A\J	.	.	8b\J	.	.	.	.	.	.	.	.	.	.	.	.	.	.	.
=111	=111	=111	=111	=111	=111	=111	=111	=111	=111	=111	=111	=111	=111	=111	=111	=111	=111	=111
8A\L	8 3	.	8cc#\L	.	4A\	ex-	Sem-	4A\	Ex-	Sem-	4a\	ex-	Sem-	4cc#\	ex-	Sem-	2ryy	2ryy
8A\	.	.	8cc#\	.	.	.	.	.	.	.	.	.	.	.	.	.	.	.
8A\	n7r_ 5_	.	8cc#\	.	4A\	-al-	-per	4A\	-al-	-per	4e\	-al-	-per	4cc#\	-al-	-per	.	.
8A\J	.	.	8ee\J	.	.	.	.	.	.	.	.	.	.	.	.	.	.	.
=112	=112	=112	=112	=112	=112	=112	=112	=112	=112	=112	=112	=112	=112	=112	=112	=112	=112	=112
8A\L	6_ 4_	.	8dd\L	.	4A\	-ta-	&	4A\	-ta-	&	4f#\	-ta-	&	4dd\	-ta-	&	2ryy	2ryy
8A\	.	.	8dd\	.	.	.	.	.	.	.	.	.	.	.	.	.	.	.
8A\	#7r_ 2_	.	8b\	.	4A\	-bi-	in	4A\	-bi-	in	4g#\	-bi-	in	4b\	-bi-	in	.	.
8A\J	.	.	8b\J	.	.	.	.	.	.	.	.	.	.	.	.	.	.	.
=113	=113	=113	=113	=113	=113	=113	=113	=113	=113	=113	=113	=113	=113	=113	=113	=113	=113	=113
!LO:TX:t=P:problem: mixed beam	!	!	!	!	!	!	!	!	!	!	!	!	!	!	!	!	!	!
8A\L	x 3	.	8cc#\L	.	4A\	-tur	Sae-	4A\	-tur	Sae-	4a\	-tur	Sae-	4cc#\	-tur	Sae-	2ryy	2ryy
8A\	.	.	8cc#\	.	.	.	.	.	.	.	.	.	.	.	.	.	.	.
*	*	*	*	*	*	*	*	*	*ij	*	*	*	*	*	*	*	*	*
8AA\	.	.	8cc#\	.	8A\	in	-cu-	8e\	ex-	-cu-	8a\	ex-	-cu-	8cc#\	in	-cu-	.	.
8C#\J	.	.	8ee\J	.	8c#\	glo-	-la	8e\	-al-	-la	8a\	-al-	-la	8ee\	.	-la	.	.
*	*	*	*	*	*	*	*	*	*Xij	*	*	*	*	*	*	*	*	*
!LO:LB:g=original	!	!	!	!	!LO:LB:g=original	!	!	!	!	!	!	!	!	!	!	!	!	!
=114	=114	=114	=114	=114	=114	=114	=114	=114	=114	=114	=114	=114	=114	=114	=114	=114	=114	=114
*	*	*	*tremolo	*	*	*	*	*	*	*	*	*	*	*	*	*	*	*
8D\L	.	.	8a/L	.	4d\	-ri-	Sae-	4d\	-ta-	Sae-	4a\	-ta-	Sae-	4ff#\	ta-	Sae-	2ryy	2ryy
8D\	.	.	8a/	.	.	.	.	.	.	.	.	.	.	.	.	.	.	.
8D\	.	.	8a/	.	4d\	-a	-cu-	4d\	-bi-	-cu-	4a\	-bi-	-cu-	4ff#\	-bi	-cu-	.	.
8D\J	.	.	8a/J	.	.	.	.	.	.	.	.	.	.	.	.	.	.	.
!	!	!	!	!	!	!	!	!	!	!	!	!	!	!LO:LB:g=original	!	!	!	!
=115	=115	=115	=115	=115	=115	=115	=115	=115	=115	=115	=115	=115	=115	=115	=115	=115	=115	=115
8C#/L	6	.	8a/L	.	4c#\	ex-	-lo-	4e\	-tur	-lo-	4a\	-tur	-lo-	4ee\	ta-	-lo-	2ryy	2ryy
8C#/	.	.	8a/	.	.	.	.	.	.	.	.	.	.	.	.	.	.	.
8C#/	.	.	8a/	.	4c#\	-al-	-rum	4e\	in	-rum	4a\	in	-rum	4ee\	-bi-	-rum	.	.
8C#/J	.	.	8a/J	.	.	.	.	.	.	.	.	.	.	.	.	.	.	.
*	*	*	*Xtremolo	*	*	*	*	*	*	*	*	*	*	*	*	*	*	*
*Xtremolo	*	*	*	*	*	*	*	*	*	*	*	*	*	*	*	*	*	*
=116	=116	=116	=116	=116	=116	=116	=116	=116	=116	=116	=116	=116	=116	=116	=116	=116	=116	=116
!LO:TX:t=P:problem: mixed beam	!	!	!	!	!	!	!	!	!	!	!	!	!	!	!	!	!	!
8D/L	6	.	8b\L	.	4d\	-ta-	a-	4f#\	glo-	a-	4b\	glo-	a-	4dd\	-tur	a-	2ryy	2ryy
8D/	.	.	24dd\L	.	.	.	.	.	.	.	.	.	.	.	.	.	.	.
.	.	.	24cc#\	.	.	.	.	.	.	.	.	.	.	.	.	.	.	.
.	.	.	24b\JJ	.	.	.	.	.	.	.	.	.	.	.	.	.	.	.
8E/	4	.	8a/L	.	8e\L	-bi-	.	4e\	-ri-	.	8a\L	-ri-	.	8cc#\L	in	.	.	.
8EE/J	3	.	8g#/J	.	8E\J	-tur	.	.	.	.	8g#\J	.	.	8b\J	.	.	.	.
=117	=117	=117	=117	=117	=117	=117	=117	=117	=117	=117	=117	=117	=117	=117	=117	=117	=117	=117
8AA\L	.	.	8a\L	.	8A\	in	-men	8e\	-a	-men	8a\	-a	-men	4cc#\	glo-	-men	2ryy	2ryy
*	*	*	*	*	*	*	*ij	*	*	*	*	*	*ij	*	*	*ij	*	*
8F#\	.	.	8cc#\J	.	8F#\L	glo-	a-	4f#\	glo-	a-	(4a\	glo-	a-	.	.	.	.	.
8D\	6 5	.	4b\	.	8D\	.	.	.	.	.	.	.	.	4b\	-ri-	a-	.	.
8E\J	.	.	.	.	8E\J	-ri-	.	8e\	-ri-	.	8g#\)	-ri-	.	.	.	.	.	.
=118	=118	=118	=118	=118	=118	=118	=118	=118	=118	=118	=118	=118	=118	=118	=118	=118	=118	=118
4AA/	.	.	4cc#\	.	4AA/	-a.	-men	4e\	-a	-men	4a\	-a	-men	4cc#\	-a	-men	2ryy	2ryy
*	*	*	*	*	*	*	*Xij	*	*	*	*	*	*Xij	*	*	*Xij	*	*
4r	.	.	4r	.	4r	.	.	4r	.	.	4r	.	.	4r	.	.	.	.
==	==	==	==	==	==	==	==	==	==	==	==	==	==	==	==	==	==	==
*-	*-	*-	*-	*-	*-	*-	*-	*-	*-	*-	*-	*-	*-	*-	*-	*-	*-	*-
!!!system-decoration: [(s1,s2)][(s3,s4,s5,s6)]s7,s8
!!!ENC: Berenika Jozajtis
!!!END: 2020-07-18
!!!ENC: Jan Barakat
!!!END: 2022-01-14
!!!RDF**kern: > = above
!!!RDF**kern: < = below
